;FLAVOR:UltiGCode
;TIME:531
;MATERIAL:503
;MATERIAL2:0

;Layer count: 8
;LAYER:0
M107
G0 F9000 X109.586 Y96.335 Z0.300
;TYPE:SKIRT
G1 F1200 X110.622 Y95.351 E0.17146
G1 X111.927 Y94.562 E0.35446
G1 X113.308 Y94.080 E0.52998
G1 X114.748 Y93.883 E0.70439
G1 X116.245 Y93.986 E0.88445
G1 X117.565 Y94.350 E1.04877
G1 X118.734 Y94.902 E1.20390
G1 X119.730 Y95.700 E1.35705
G1 X120.175 Y96.059 E1.42566
G1 X121.335 Y97.457 E1.64365
G1 X121.779 Y98.021 E1.72979
G1 X122.635 Y99.152 E1.90000
G1 X123.155 Y99.844 E2.00387
G1 X124.812 Y102.301 E2.35949
G1 X125.195 Y102.871 E2.44190
G1 X126.106 Y104.417 E2.65723
G1 X126.431 Y104.944 E2.73153
G1 X126.757 Y105.537 E2.81274
G1 X127.532 Y106.975 E3.00876
G1 X127.886 Y107.671 E3.10246
G1 X128.403 Y108.724 E3.24323
G1 X129.171 Y110.457 E3.47070
G1 X129.675 Y111.681 E3.62954
G1 X130.472 Y113.746 E3.89516
G1 X130.890 Y115.321 E4.09070
G1 X131.034 Y116.501 E4.23335
G1 X131.103 Y117.053 E4.30011
G1 X131.078 Y118.812 E4.51121
G1 X130.818 Y120.549 E4.72197
G1 X130.512 Y121.610 E4.85448
G1 X130.513 Y121.610 E4.85460
G1 X130.372 Y122.097 E4.91544
G1 X129.746 Y123.573 E5.10783
G1 X128.938 Y124.970 E5.30149
G1 X127.963 Y126.262 E5.49573
G1 X126.840 Y127.424 E5.68964
G1 X125.986 Y128.122 E5.82200
G1 X125.585 Y128.450 E5.88416
G1 X124.642 Y129.046 E6.01803
G1 X124.213 Y129.317 E6.07892
G1 X123.225 Y129.792 E6.21047
G1 X122.757 Y130.019 E6.27289
G1 X121.696 Y130.382 E6.40746
G1 X121.221 Y130.546 E6.46776
G1 X120.107 Y130.788 E6.60456
G1 X119.597 Y130.899 E6.66719
G1 X118.481 Y131.006 E6.80172
G1 X118.481 Y131.005 E6.80184
G1 X118.035 Y131.049 E6.85562
G1 X115.082 Y131.087 E7.21001
G1 X114.559 Y131.101 E7.27279
G1 X113.519 Y131.087 E7.39761
G1 X111.964 Y131.047 E7.58427
G1 X111.037 Y130.964 E7.69595
G1 X110.576 Y130.921 E7.75151
G1 X109.110 Y130.630 E7.93086
G1 X107.981 Y130.270 E8.07307
G1 X107.452 Y130.099 E8.13978
G1 X106.362 Y129.590 E8.28414
G1 X105.863 Y129.355 E8.35033
G1 X104.855 Y128.718 E8.49341
G1 X104.387 Y128.421 E8.55993
G1 X103.469 Y127.661 E8.70294
G1 X103.042 Y127.307 E8.76950
G1 X102.232 Y126.436 E8.91223
G1 X101.855 Y126.031 E8.97863
G1 X101.162 Y125.059 E9.12188
G1 X100.839 Y124.604 E9.18884
G1 X100.282 Y123.551 E9.33179
G1 X100.022 Y123.061 E9.39835
G1 X99.608 Y121.938 E9.54198
G1 X99.413 Y121.415 E9.60896
G1 X99.035 Y119.694 E9.82040
G1 X98.940 Y118.599 E9.95229
G1 X98.894 Y118.099 E10.01255
G1 X98.933 Y117.000 E10.14451
G1 X98.953 Y116.480 E10.20696
G1 X99.172 Y115.148 E10.36894
G1 X99.228 Y114.821 E10.40875
G1 X99.675 Y113.327 E10.59589
G1 X100.054 Y112.385 E10.71773
G1 X100.908 Y110.261 E10.99244
G1 X101.684 Y108.597 E11.21277
G1 X102.128 Y107.678 E11.33525
G1 X102.901 Y106.173 E11.53827
G1 X103.552 Y105.006 E11.69863
G1 X103.863 Y104.442 E11.77592
G1 X104.226 Y103.852 E11.85905
G1 X106.124 Y100.900 E12.28019
G1 X106.530 Y100.294 E12.36772
G1 X109.586 Y96.335 E12.96787
G0 F9000 X109.884 Y96.603
G1 F1200 X110.866 Y95.671 E13.13034
G1 X112.098 Y94.926 E13.30311
G1 X113.401 Y94.471 E13.46872
G1 X114.761 Y94.285 E13.63344
G1 X116.177 Y94.383 E13.80377
G1 X117.425 Y94.726 E13.95908
G1 X118.520 Y95.243 E14.10439
G1 X119.479 Y96.012 E14.25190
G1 X119.892 Y96.345 E14.31557
G1 X121.024 Y97.708 E14.52818
G1 X121.462 Y98.265 E14.61321
G1 X122.316 Y99.392 E14.78289
G1 X122.829 Y100.076 E14.88549
G1 X124.481 Y102.524 E15.23988
G1 X124.857 Y103.084 E15.32083
G1 X125.759 Y104.618 E15.53437
G1 X126.085 Y105.145 E15.60873
G1 X126.405 Y105.728 E15.68854
G1 X127.178 Y107.160 E15.88382
G1 X127.529 Y107.849 E15.97661
G1 X128.040 Y108.893 E16.11609
G1 X128.804 Y110.614 E16.34204
G1 X129.304 Y111.829 E16.49971
G1 X130.091 Y113.869 E16.76209
G1 X130.497 Y115.397 E16.95181
G1 X130.639 Y116.562 E17.09265
G1 X130.638 Y116.562 E17.09277
G1 X130.703 Y117.075 E17.15482
G1 X130.679 Y118.780 E17.35944
G1 X130.426 Y120.464 E17.56379
G1 X130.128 Y121.500 E17.69315
G1 X129.995 Y121.963 E17.75096
G1 X129.388 Y123.395 E17.93760
G1 X128.604 Y124.749 E18.12535
G1 X127.658 Y126.002 E18.31375
G1 X126.568 Y127.129 E18.50189
G1 X125.733 Y127.812 E18.63135
G1 X125.351 Y128.125 E18.69061
G1 X124.428 Y128.708 E18.82161
G1 X124.019 Y128.967 E18.87971
G1 X123.041 Y129.437 E19.00991
G1 X122.604 Y129.649 E19.06820
G1 X121.576 Y130.000 E19.19855
G1 X121.113 Y130.160 E19.25734
G1 X120.022 Y130.397 E19.39131
G1 X119.535 Y130.503 E19.45112
G1 X118.443 Y130.608 E19.58276
G1 X118.443 Y130.607 E19.58288
G1 X118.014 Y130.649 E19.63461
G1 X115.067 Y130.687 E19.98828
G1 X114.556 Y130.701 E20.04962
G1 X113.527 Y130.687 E20.17311
G1 X111.987 Y130.647 E20.35797
G1 X111.073 Y130.566 E20.46808
G1 X110.633 Y130.525 E20.52111
G1 X109.210 Y130.242 E20.69522
G1 X108.103 Y129.889 E20.83465
G1 X107.598 Y129.726 E20.89833
G1 X106.532 Y129.228 E21.03952
G1 X106.056 Y129.004 E21.10265
G1 X105.069 Y128.380 E21.24277
G1 X104.622 Y128.097 E21.30626
G1 X103.724 Y127.353 E21.44620
G1 X103.317 Y127.016 E21.50961
G1 X102.525 Y126.163 E21.64928
G1 X102.166 Y125.778 E21.71245
G1 X101.488 Y124.827 E21.85261
G1 X101.180 Y124.394 E21.91637
G1 X100.636 Y123.364 E22.05615
G1 X100.388 Y122.897 E22.11960
G1 X99.988 Y121.810 E22.25859
G1 X99.987 Y121.810 E22.25871
G1 X99.798 Y121.302 E22.32376
G1 X99.431 Y119.633 E22.52882
G1 X99.338 Y118.564 E22.65759
G1 X99.295 Y118.088 E22.71494
G1 X99.333 Y117.014 E22.84390
G1 X99.352 Y116.520 E22.90322
G1 X99.567 Y115.214 E23.06205
G1 X99.618 Y114.912 E23.09881
G1 X100.053 Y113.459 E23.28081
G1 X100.425 Y112.535 E23.40034
G1 X101.275 Y110.420 E23.67387
G1 X102.045 Y108.769 E23.89248
G1 X102.486 Y107.857 E24.01404
G1 X103.254 Y106.362 E24.21573
G1 X103.901 Y105.201 E24.37522
G1 X104.208 Y104.644 E24.45154
G1 X104.565 Y104.065 E24.53317
G1 X106.458 Y101.120 E24.95328
G1 X106.855 Y100.527 E25.03891
G1 X109.884 Y96.603 E25.63376
G10
G0 F9000 X123.895 Y115.410
;TYPE:FILL
G11
G1 F1200 X124.426 Y115.954 E25.72202
G1 X123.941 Y116.474 E25.80735
G0 F9000 X123.798 Y116.668
;TYPE:WALL-INNER
G1 F1200 X123.812 Y116.029 E25.88405
G1 X123.726 Y115.062 E26.00055
G1 X123.604 Y114.734 E26.04254
G1 X123.183 Y114.236 E26.12079
G1 X123.229 Y114.259 E26.12696
G1 X123.686 Y114.582 E26.19412
G1 X124.260 Y115.234 E26.29836
G1 X124.599 Y115.996 E26.39844
G1 X124.691 Y116.870 E26.50390
G1 X124.615 Y117.665 E26.59973
G1 X124.357 Y118.222 E26.67340
G1 X123.921 Y118.783 E26.75866
G1 X123.361 Y119.270 E26.84771
G1 X122.728 Y119.625 E26.93480
G1 X122.199 Y119.818 E27.00238
G1 X121.636 Y119.928 E27.07121
G1 X117.986 Y120.049 E27.50945
G1 X118.004 Y118.943 E27.64219
G1 X118.407 Y118.940 E27.69055
G1 X118.407 Y114.906 E28.17463
G1 X118.072 Y114.903 E28.21484
G1 X118.147 Y110.412 E28.75383
G1 X119.022 Y110.372 E28.85894
G1 X120.097 Y110.401 E28.98799
G1 X120.152 Y112.743 E29.26910
G1 X119.901 Y112.868 E29.30275
G1 X120.160 Y113.104 E29.34480
G1 X120.164 Y113.258 E29.36329
G1 X120.419 Y113.338 E29.39536
G1 X120.728 Y113.619 E29.44548
G1 X120.921 Y113.648 E29.46890
G1 X120.575 Y113.684 E29.51064
G1 X119.811 Y114.114 E29.61584
G1 X119.214 Y114.795 E29.72452
G1 X119.043 Y115.894 E29.85799
G1 X119.091 Y117.893 E30.09794
G1 X119.205 Y118.644 E30.18909
G1 X119.750 Y119.313 E30.29264
G1 X120.388 Y119.675 E30.38066
G1 X120.835 Y119.759 E30.43524
G1 X121.673 Y119.759 E30.53580
G1 X122.267 Y119.671 E30.60786
G1 X122.585 Y119.623 E30.64645
G1 X123.070 Y119.295 E30.71671
G1 X123.584 Y118.665 E30.81428
G1 X123.706 Y117.786 E30.92077
G1 X123.536 Y117.132 E31.00186
G1 X123.798 Y116.668 E31.06580
G10
G0 F9000 X126.084 Y117.265
G11
G1 F1200 X126.104 Y117.038 E31.09315
G1 X126.029 Y115.879 E31.23252
G1 X126.018 Y115.737 E31.24961
G1 X125.530 Y114.573 E31.40107
G1 X124.831 Y113.664 E31.53867
G1 X123.905 Y112.961 E31.67818
G1 X122.809 Y112.490 E31.82134
G1 X121.606 Y112.269 E31.96811
G1 X121.562 Y112.266 E31.97340
G1 X121.562 Y108.897 E32.37768
G1 X116.523 Y108.897 E32.98236
G1 X116.561 Y117.286 E33.98905
G1 X116.563 Y118.293 E34.10989
G1 X116.740 Y118.295 E34.13114
G1 X116.770 Y120.090 E34.34657
G1 X116.525 Y120.098 E34.37598
G1 X116.527 Y121.261 E34.51554
G1 X118.802 Y121.326 E34.78865
G1 X119.386 Y121.343 E34.85876
G1 X122.178 Y121.251 E35.19398
G1 X123.332 Y120.882 E35.33937
G1 X124.391 Y120.291 E35.48490
G1 X125.213 Y119.473 E35.62406
G1 X125.828 Y118.501 E35.76209
G1 X126.032 Y117.875 E35.84109
G1 X126.084 Y117.265 E35.91456
G0 F9000 X126.867 Y117.023
G1 F1200 X126.899 Y117.283 E35.94600
G1 X126.883 Y118.473 E36.08881
G1 X126.707 Y119.647 E36.23126
G1 X126.404 Y120.698 E36.36252
G1 X125.983 Y121.692 E36.49206
G1 X125.430 Y122.646 E36.62438
G1 X124.765 Y123.528 E36.75693
G1 X123.991 Y124.328 E36.89051
G1 X123.127 Y125.035 E37.02448
G1 X122.175 Y125.637 E37.15964
G1 X121.393 Y126.013 E37.26376
G1 X121.155 Y126.128 E37.29548
G1 X120.337 Y126.408 E37.39924
G1 X120.084 Y126.495 E37.43134
G1 X118.948 Y126.742 E37.57085
G1 X117.811 Y126.851 E37.70791
G1 X114.993 Y126.887 E38.04610
G1 X114.524 Y126.900 E38.10240
G1 X113.605 Y126.888 E38.21269
G1 X112.208 Y126.852 E38.38039
G1 X111.416 Y126.781 E38.47581
G1 X111.189 Y126.761 E38.50315
G1 X110.162 Y126.557 E38.62880
G1 X109.264 Y126.270 E38.74193
G1 X108.994 Y126.184 E38.77593
G1 X108.145 Y125.787 E38.88840
G1 X107.886 Y125.665 E38.92276
G1 X106.861 Y125.017 E39.06828
G1 X105.932 Y124.247 E39.21307
G1 X105.117 Y123.371 E39.35665
G1 X104.419 Y122.390 E39.50113
G1 X103.865 Y121.343 E39.64327
G1 X103.549 Y120.484 E39.75310
G1 X103.452 Y120.227 E39.78607
G1 X103.196 Y119.060 E39.92944
G1 X103.124 Y118.234 E40.02893
G1 X103.101 Y117.983 E40.05918
G1 X103.131 Y117.155 E40.15861
G1 X103.141 Y116.898 E40.18947
G1 X103.314 Y115.843 E40.31776
G1 X103.326 Y115.776 E40.32593
G1 X103.644 Y114.717 E40.45861
G1 X104.763 Y111.933 E40.81867
G1 X105.480 Y110.395 E41.02230
G1 X105.884 Y109.558 E41.13383
G1 X105.948 Y109.434 E41.15057
G1 X105.894 Y121.322 E42.57715
G1 X110.842 Y121.322 E43.17091
G1 X110.842 Y112.659 E44.21047
G1 X116.436 Y112.659 E44.88175
G1 X116.436 Y108.888 E45.33427
G1 X114.638 Y108.915 E45.55005
G1 X113.581 Y108.934 E45.67691
G1 X113.579 Y108.969 E45.68112
G1 X111.424 Y109.001 E45.93975
G1 X109.045 Y108.967 E46.22526
G1 X109.043 Y108.947 E46.22767
G1 X107.924 Y108.926 E46.36197
G1 X106.227 Y108.890 E46.56566
G1 X106.609 Y108.147 E46.66591
G1 X107.221 Y107.050 E46.81665
G1 X107.484 Y106.572 E46.88212
G1 X107.778 Y106.094 E46.94946
G1 X109.633 Y103.209 E47.36105
G1 X109.943 Y102.745 E47.42801
G1 X112.715 Y99.155 E47.97229
G1 X113.185 Y98.708 E48.05013
G1 X113.720 Y98.385 E48.12512
G1 X114.299 Y98.183 E48.19871
G1 X114.885 Y98.103 E48.26968
G1 X115.540 Y98.148 E48.34846
G1 X116.095 Y98.301 E48.41755
G1 X116.495 Y98.490 E48.47064
G1 X117.096 Y98.972 E48.56309
G1 X117.211 Y99.065 E48.58083
G1 X118.063 Y100.091 E48.74087
G1 X118.457 Y100.592 E48.81735
G1 X119.281 Y101.679 E48.98104
G1 X119.733 Y102.281 E49.07137
G1 X121.328 Y104.646 E49.41368
G1 X121.643 Y105.115 E49.48148
G1 X122.504 Y106.579 E49.68529
G1 X122.794 Y107.047 E49.75136
G1 X123.067 Y107.543 E49.81930
G1 X123.808 Y108.918 E50.00673
G1 X124.127 Y109.544 E50.09104
G1 X124.601 Y110.511 E50.22027
G1 X125.306 Y112.100 E50.42888
G1 X125.771 Y113.230 E50.57551
G1 X126.472 Y115.046 E50.80910
G1 X126.756 Y116.116 E50.94195
G1 X126.867 Y117.023 E51.05160
G0 F9000 X124.828 Y113.666
G0 X122.807 Y112.492
G0 X121.503 Y108.956
G0 X116.583 Y108.956
G0 X116.436 Y112.922
G1 F1200 X111.281 Y112.922 E51.67020
G1 X111.329 Y121.323 E52.67834
G1 X111.853 Y121.326 E52.74122
G1 X111.632 Y121.495 E52.77460
G1 X111.121 Y122.420 E52.90141
G1 X111.089 Y123.464 E53.02675
G1 X111.561 Y124.427 E53.15545
G1 X112.181 Y124.988 E53.25578
G1 X112.967 Y125.344 E53.35933
G1 X113.635 Y125.427 E53.44010
G1 X113.925 Y125.464 E53.47519
G1 X114.865 Y125.282 E53.59008
G1 X115.436 Y124.965 E53.66845
G1 X115.694 Y124.822 E53.70385
G1 X116.316 Y124.098 E53.81839
G1 X116.601 Y123.156 E53.93649
G1 X116.458 Y122.217 E54.05047
G1 X115.942 Y121.404 E54.16602
G1 X115.873 Y121.353 E54.17632
G1 X116.436 Y121.357 E54.24388
G1 X116.436 Y112.922 E55.25608
G0 F9000 X116.036 Y113.322
;TYPE:WALL-OUTER
G1 F1200 X111.683 Y113.322 E55.77844
G1 X111.727 Y120.926 E56.69093
G1 X116.036 Y120.954 E57.20802
G1 X116.036 Y113.322 E58.12386
G0 F9000 X116.036 Y112.259
G1 F1200 X116.036 Y109.294 E58.47966
G1 X113.957 Y109.327 E58.72917
G1 X113.955 Y109.363 E58.73350
G1 X111.424 Y109.401 E59.03726
G1 X108.675 Y109.361 E59.36717
G1 X108.673 Y109.340 E59.36970
G1 X106.348 Y109.293 E59.64876
G1 X106.296 Y120.922 E61.04425
G1 X110.442 Y120.922 E61.54177
G1 X110.442 Y112.259 E62.58133
G1 X116.036 Y112.259 E63.25261
G0 F9000 X116.036 Y112.559
G0 X116.377 Y112.600
G0 X116.583 Y108.956
G0 X116.925 Y108.997
G0 X116.925 Y109.297
G1 F1200 X116.963 Y117.897 E64.28462
G1 X117.134 Y117.899 E64.30514
G1 X117.177 Y120.477 E64.61455
G1 X116.926 Y120.485 E64.64468
G1 X116.926 Y120.872 E64.69112
G1 X119.385 Y120.943 E64.98633
G1 X122.109 Y120.853 E65.31338
G1 X123.172 Y120.513 E65.44731
G1 X124.148 Y119.968 E65.58145
G1 X124.899 Y119.221 E65.70856
G1 X125.463 Y118.330 E65.83510
G1 X125.637 Y117.795 E65.90261
G1 X125.703 Y117.033 E65.99440
G1 X125.630 Y115.906 E66.12992
G1 X125.624 Y115.832 E66.13883
G1 X125.181 Y114.776 E66.27625
G1 X124.546 Y113.950 E66.40127
G1 X123.702 Y113.309 E66.52845
G1 X122.692 Y112.875 E66.66037
G1 X121.555 Y112.666 E66.79909
G1 X121.162 Y112.637 E66.84638
G1 X121.162 Y109.297 E67.24718
G1 X116.925 Y109.297 E67.75562
G10
G0 F9000 X119.029 Y109.972
G11
G1 F1200 X120.450 Y110.010 E67.92620
G1 X120.491 Y110.117 E67.93995
G1 X120.557 Y112.963 E68.28156
G1 X120.622 Y112.984 E68.28976
G1 X120.907 Y113.242 E68.33589
G1 X122.208 Y113.439 E68.49379
G1 X122.861 Y113.635 E68.57561
G1 X123.439 Y113.917 E68.65278
G1 X123.955 Y114.282 E68.72863
G1 X124.599 Y115.013 E68.84553
G1 X124.990 Y115.894 E68.96120
G1 X125.093 Y116.864 E69.07825
G1 X125.006 Y117.769 E69.18735
G1 X124.700 Y118.432 E69.27498
G1 X124.211 Y119.062 E69.37068
G1 X123.594 Y119.598 E69.46875
G1 X122.896 Y119.989 E69.56476
G1 X122.305 Y120.205 E69.64027
G1 X121.682 Y120.326 E69.71643
G1 X117.579 Y120.463 E70.20906
G1 X117.611 Y118.547 E70.43901
G1 X118.007 Y118.543 E70.48653
G1 X118.007 Y115.303 E70.87533
G1 X117.665 Y115.300 E70.91638
G1 X117.753 Y110.030 E71.54886
G1 X119.029 Y109.972 E71.70214
G0 F9000 X119.040 Y110.272
G0 X120.553 Y113.812
G0 X120.699 Y114.073
G1 F1200 X120.067 Y114.429 E71.78919
G1 X119.591 Y114.972 E71.87584
G1 X119.444 Y115.920 E71.99096
G1 X119.490 Y117.858 E72.22358
G1 X119.584 Y118.476 E72.29860
G1 X120.013 Y119.002 E72.38005
G1 X120.527 Y119.294 E72.45099
G1 X120.872 Y119.359 E72.49311
G1 X121.644 Y119.359 E72.58575
G1 X122.208 Y119.276 E72.65416
G1 X122.436 Y119.241 E72.68184
G1 X122.797 Y118.996 E72.73420
G1 X123.203 Y118.499 E72.81121
G1 X123.299 Y117.810 E72.89469
G1 X123.108 Y117.077 E72.98558
G1 X123.400 Y116.559 E73.05694
G1 X123.411 Y116.042 E73.11899
G1 X123.332 Y115.151 E73.22633
G1 X123.253 Y114.939 E73.25348
G1 X122.850 Y114.462 E73.32842
G1 X122.165 Y114.073 E73.42295
G1 X121.430 Y113.997 E73.51162
G1 X120.699 Y114.073 E73.59981
G10
G0 F9000 X125.676 Y111.948
G11
G1 F1200 X126.144 Y113.086 E73.74747
G1 X126.856 Y114.931 E73.98478
G1 X127.149 Y116.036 E74.12196
G1 X127.300 Y117.266 E74.27067
G1 X127.282 Y118.501 E74.41889
G1 X127.096 Y119.742 E74.56947
G1 X126.785 Y120.824 E74.70457
G1 X126.340 Y121.874 E74.84141
G1 X125.766 Y122.865 E74.97884
G1 X125.070 Y123.787 E75.11747
G1 X124.264 Y124.621 E75.25665
G1 X123.356 Y125.363 E75.39736
G1 X122.367 Y125.988 E75.53775
G1 X121.308 Y126.499 E75.67885
G1 X120.191 Y126.881 E75.82051
G1 X119.013 Y127.138 E75.96520
G1 X117.830 Y127.251 E76.10781
G1 X115.001 Y127.287 E76.44731
G1 X114.530 Y127.300 E76.50386
G1 X113.594 Y127.288 E76.61618
G1 X112.179 Y127.251 E76.78604
G1 X111.123 Y127.156 E76.91327
G1 X110.067 Y126.946 E77.04248
G1 X108.840 Y126.554 E77.19705
G1 X107.695 Y126.017 E77.34881
G1 X106.626 Y125.342 E77.50052
G1 X105.653 Y124.536 E77.65214
G1 X104.808 Y123.627 E77.80107
G1 X104.080 Y122.605 E77.95164
G1 X103.500 Y121.508 E78.10055
G1 X103.066 Y120.335 E78.25063
G1 X102.799 Y119.119 E78.40003
G1 X102.700 Y117.998 E78.53507
G1 X102.742 Y116.858 E78.67197
