;FLAVOR:UltiGCode
;TIME:1137
;MATERIAL:461
;MATERIAL2:0

;Layer count: 19
;LAYER:0
M107
G0 F9000 X109.587 Y96.332 Z0.300
G0 X109.181 Y96.857
;TYPE:SKIRT
G1 F1200 X109.587 Y96.332 E0.07964
G1 X110.190 Y95.761 E0.17929
G1 X110.627 Y95.349 E0.25137
G1 X111.925 Y94.562 E0.43352
G1 X113.296 Y94.085 E0.60771
G1 X114.744 Y93.883 E0.78316
G1 X116.233 Y93.986 E0.96226
G1 X117.378 Y94.298 E1.10467
G1 X117.708 Y94.418 E1.14681
G1 X118.733 Y94.902 E1.28283
G1 X119.584 Y95.584 E1.41370
G1 X120.169 Y96.054 E1.50375
G1 X121.434 Y97.579 E1.74152
G1 X121.530 Y97.692 E1.75931
G1 X122.595 Y99.099 E1.97106
G1 X123.029 Y99.680 E2.05809
G1 X123.538 Y100.412 E2.16508
G1 X124.761 Y102.223 E2.42731
G1 X125.184 Y102.855 E2.51857
G1 X126.046 Y104.319 E2.72244
G1 X126.418 Y104.923 E2.80756
G1 X126.777 Y105.576 E2.89698
G1 X127.592 Y107.085 E3.10279
G1 X127.912 Y107.722 E3.18833
G1 X128.433 Y108.790 E3.33093
G1 X129.143 Y110.398 E3.54186
G1 X129.703 Y111.755 E3.71802
G1 X130.480 Y113.766 E3.97673
G1 X130.890 Y115.322 E4.16982
G1 X131.103 Y117.057 E4.37958
G1 X131.088 Y118.213 E4.51831
G1 X131.079 Y118.815 E4.59056
G1 X130.817 Y120.550 E4.80112
G1 X130.373 Y122.094 E4.99391
G1 X129.746 Y123.574 E5.18679
G1 X128.937 Y124.970 E5.38041
G1 X128.294 Y125.823 E5.50859
G1 X127.962 Y126.262 E5.57464
G1 X126.840 Y127.424 E5.76848
G1 X125.586 Y128.448 E5.96275
G1 X124.214 Y129.318 E6.15770
G1 X122.753 Y130.019 E6.35216
G1 X121.214 Y130.548 E6.54745
G1 X120.134 Y130.781 E6.68003
G1 X119.599 Y130.898 E6.74574
G1 X118.036 Y131.049 E6.93418
G1 X115.187 Y131.086 E7.27609
G1 X114.615 Y131.101 E7.34475
G1 X113.464 Y131.086 E7.48288
G1 X111.964 Y131.047 E7.66294
G1 X111.070 Y130.967 E7.77065
G1 X110.576 Y130.921 E7.83019
G1 X109.109 Y130.630 E8.00966
G1 X107.454 Y130.100 E8.21819
G1 X105.867 Y129.358 E8.42842
G1 X104.388 Y128.424 E8.63833
G1 X103.041 Y127.307 E8.84831
G1 X102.256 Y126.462 E8.98672
G1 X102.257 Y126.461 E8.98689
G1 X101.856 Y126.032 E9.05736
G1 X101.185 Y125.092 E9.19595
G1 X100.838 Y124.605 E9.26770
G1 X100.300 Y123.586 E9.40598
G1 X100.022 Y123.061 E9.47727
G1 X99.621 Y121.974 E9.61630
G1 X99.413 Y121.413 E9.68810
G1 X99.035 Y119.693 E9.89942
G1 X98.943 Y118.635 E10.02686
G1 X98.894 Y118.097 E10.09169
G1 X98.932 Y117.035 E10.21921
G1 X98.953 Y116.481 E10.28574
G1 X99.132 Y115.390 E10.41841
G1 X99.226 Y114.828 E10.48679
G1 X99.534 Y113.797 E10.61591
G1 X99.677 Y113.323 E10.67532
G1 X100.554 Y111.141 E10.95752
G1 X100.908 Y110.262 E11.07123
G1 X101.655 Y108.660 E11.28334
G1 X102.149 Y107.637 E11.41967
G1 X102.952 Y106.072 E11.63075
G1 X103.526 Y105.053 E11.77109
G1 X103.863 Y104.442 E11.85482
G1 X104.262 Y103.794 E11.94614
G1 X106.050 Y101.012 E12.34299
G1 X106.517 Y100.311 E12.44406
G1 X109.181 Y96.857 E12.96750
G0 F9000 X109.498 Y97.102
G1 F1200 X109.884 Y96.601 E13.04340
G1 X110.464 Y96.052 E13.13923
G1 X110.870 Y95.669 E13.20621
G1 X112.096 Y94.926 E13.37824
G1 X113.391 Y94.475 E13.54279
G1 X114.758 Y94.285 E13.70841
G1 X116.166 Y94.383 E13.87778
G1 X117.256 Y94.679 E14.01332
G1 X117.554 Y94.787 E14.05135
G1 X118.520 Y95.244 E14.17959
G1 X119.334 Y95.896 E14.30474
G1 X119.887 Y96.341 E14.38992
G1 X121.129 Y97.837 E14.62324
G1 X121.218 Y97.942 E14.63976
G1 X122.276 Y99.340 E14.85015
G1 X122.704 Y99.914 E14.93607
G1 X123.208 Y100.638 E15.04193
G1 X124.430 Y102.446 E15.30379
G1 X124.845 Y103.067 E15.39342
G1 X125.718 Y104.552 E15.60013
G1 X126.073 Y105.125 E15.68102
G1 X126.426 Y105.767 E15.76894
G1 X127.237 Y107.270 E15.97388
G1 X127.553 Y107.899 E16.05835
G1 X128.070 Y108.958 E16.19977
G1 X128.775 Y110.555 E16.40925
G1 X129.331 Y111.904 E16.58434
G1 X130.099 Y113.890 E16.83986
G1 X130.497 Y115.397 E17.02690
G1 X130.703 Y117.079 E17.23025
G1 X130.688 Y118.208 E17.36574
G1 X130.680 Y118.782 E17.43462
G1 X130.425 Y120.464 E17.63877
G1 X129.995 Y121.961 E17.82567
G1 X129.388 Y123.395 E18.01254
G1 X128.603 Y124.749 E18.20035
G1 X127.975 Y125.582 E18.32553
G1 X127.657 Y126.002 E18.38875
G1 X126.568 Y127.129 E18.57681
G1 X125.352 Y128.123 E18.76528
G1 X124.020 Y128.967 E18.95451
G1 X122.601 Y129.648 E19.14338
G1 X121.107 Y130.162 E19.33297
G1 X120.049 Y130.390 E19.46285
G1 X119.537 Y130.502 E19.52574
G1 X118.014 Y130.649 E19.70935
G1 X115.174 Y130.686 E20.05018
G1 X114.613 Y130.701 E20.11752
G1 X113.472 Y130.686 E20.25445
G1 X111.987 Y130.647 E20.43272
G1 X111.106 Y130.569 E20.53885
G1 X110.634 Y130.525 E20.59574
G1 X109.209 Y130.242 E20.77007
G1 X107.600 Y129.727 E20.97280
G1 X106.059 Y129.006 E21.17696
G1 X104.624 Y128.099 E21.38068
G1 X103.316 Y127.015 E21.58453
G1 X102.549 Y126.190 E21.71971
G1 X102.166 Y125.778 E21.78721
G1 X101.511 Y124.860 E21.92254
G1 X101.180 Y124.394 E21.99113
G1 X100.654 Y123.399 E22.12619
G1 X100.388 Y122.898 E22.19425
G1 X99.996 Y121.836 E22.33010
G1 X99.797 Y121.300 E22.39871
G1 X99.431 Y119.632 E22.60363
G1 X99.341 Y118.600 E22.72794
G1 X99.295 Y118.086 E22.78987
G1 X99.332 Y117.049 E22.91439
G1 X99.352 Y116.521 E22.97779
G1 X99.527 Y115.455 E23.10742
G1 X99.617 Y114.918 E23.17276
G1 X99.917 Y113.912 E23.29874
G1 X100.055 Y113.456 E23.35591
G1 X100.925 Y111.291 E23.63590
G1 X101.275 Y110.421 E23.74843
G1 X102.016 Y108.831 E23.95893
G1 X102.507 Y107.816 E24.09424
G1 X103.304 Y106.262 E24.30381
G1 X103.861 Y105.273 E24.44002
G1 X104.208 Y104.644 E24.52622
G1 X104.601 Y104.007 E24.61604
G1 X106.385 Y101.231 E25.01202
G1 X106.842 Y100.545 E25.11093
G1 X109.498 Y97.102 E25.63274
G10
G0 F9000 X112.708 Y99.162
;TYPE:WALL-INNER
G11
G1 F1200 X113.074 Y98.815 E25.69326
G1 X113.187 Y98.708 E25.71194
G1 X113.723 Y98.384 E25.78709
G1 X114.289 Y98.187 E25.85901
G1 X114.886 Y98.103 E25.93136
G1 X115.532 Y98.148 E26.00906
G1 X116.100 Y98.303 E26.07972
G1 X116.491 Y98.487 E26.13157
G1 X117.207 Y99.062 E26.24177
G1 X118.226 Y100.289 E26.43316
G1 X119.237 Y101.622 E26.63393
G1 X119.627 Y102.144 E26.71212
G1 X120.071 Y102.783 E26.80549
G1 X121.275 Y104.566 E27.06367
G1 X121.635 Y105.104 E27.14135
G1 X122.456 Y106.501 E27.33579
G1 X122.782 Y107.027 E27.41005
G1 X123.088 Y107.583 E27.48621
G1 X123.871 Y109.034 E27.68406
G1 X124.147 Y109.583 E27.75780
G1 X124.619 Y110.549 E27.88682
G1 X125.277 Y112.040 E28.08239
G1 X125.799 Y113.306 E28.24671
G1 X126.479 Y115.066 E28.47313
G1 X126.755 Y116.112 E28.60294
G1 X126.899 Y117.289 E28.74524
G1 X126.884 Y118.472 E28.88721
G1 X126.706 Y119.647 E29.02982
G1 X126.404 Y120.697 E29.16093
G1 X125.983 Y121.692 E29.29057
G1 X125.429 Y122.646 E29.42296
G1 X124.943 Y123.292 E29.51997
G1 X124.770 Y123.521 E29.55441
G1 X123.991 Y124.327 E29.68892
G1 X123.121 Y125.037 E29.82367
G1 X122.175 Y125.638 E29.95816
G1 X121.151 Y126.129 E30.09444
G1 X120.092 Y126.493 E30.22881
G1 X119.250 Y126.675 E30.33219
G1 X118.946 Y126.741 E30.36952
G1 X117.809 Y126.851 E30.50659
G1 X115.107 Y126.886 E30.83086
G1 X114.581 Y126.900 E30.89400
G1 X113.550 Y126.887 E31.01773
G1 X112.208 Y126.852 E31.17883
G1 X111.449 Y126.784 E31.27027
G1 X111.190 Y126.761 E31.30148
G1 X110.154 Y126.555 E31.42823
G1 X108.989 Y126.182 E31.57502
G1 X107.887 Y125.666 E31.72104
G1 X106.864 Y125.020 E31.86623
G1 X105.932 Y124.248 E32.01145
G1 X105.112 Y123.366 E32.15597
G1 X104.421 Y122.397 E32.29878
G1 X103.867 Y121.349 E32.44103
G1 X103.562 Y120.521 E32.54692
G1 X103.453 Y120.228 E32.58444
G1 X103.196 Y119.059 E32.72807
G1 X103.127 Y118.269 E32.82323
G1 X103.101 Y117.984 E32.85757
G1 X103.141 Y116.897 E32.98810
G1 X103.276 Y116.077 E33.08782
G1 X103.326 Y115.777 E33.12432
G1 X103.557 Y115.004 E33.22113
G1 X103.640 Y114.725 E33.25606
G1 X104.766 Y111.927 E33.61799
G1 X105.447 Y110.464 E33.81164
G1 X105.905 Y109.517 E33.93787
G1 X106.657 Y108.052 E34.13548
G1 X107.187 Y107.111 E34.26508
G1 X107.484 Y106.572 E34.33893
G1 X107.814 Y106.036 E34.41446
G1 X109.562 Y103.316 E34.80245
G1 X109.934 Y102.758 E34.88293
G1 X112.708 Y99.162 E35.42792
G0 F9000 X112.411 Y98.891
;TYPE:WALL-OUTER
G1 F1200 X112.941 Y98.390 E35.51544
G1 X113.553 Y98.019 E35.60132
G1 X114.193 Y97.796 E35.68265
G1 X114.873 Y97.701 E35.76504
G1 X115.600 Y97.752 E35.85249
G1 X116.227 Y97.923 E35.93048
G1 X116.244 Y97.929 E35.93264
G1 X116.706 Y98.147 E35.99395
G1 X117.489 Y98.775 E36.11439
G1 X118.533 Y100.032 E36.31048
G1 X119.558 Y101.383 E36.51397
G1 X119.944 Y101.899 E36.59130
G1 X120.402 Y102.559 E36.68770
G1 X121.968 Y104.882 E37.02389
G1 X122.799 Y106.294 E37.22050
G1 X123.138 Y106.843 E37.29792
G1 X123.440 Y107.393 E37.37322
G1 X124.220 Y108.839 E37.57037
G1 X124.506 Y109.408 E37.64679
G1 X124.985 Y110.388 E37.77769
G1 X125.647 Y111.887 E37.97433
G1 X126.172 Y113.162 E38.13979
G1 X126.863 Y114.950 E38.36982
G1 X127.149 Y116.035 E38.50447
G1 X127.300 Y117.267 E38.65341
G1 X127.283 Y118.501 E38.80151
G1 X127.095 Y119.741 E38.95201
G1 X126.785 Y120.823 E39.08707
G1 X126.340 Y121.874 E39.22403
G1 X125.765 Y122.865 E39.36152
G1 X125.070 Y123.786 E39.49997
G1 X124.264 Y124.621 E39.63924
G1 X123.356 Y125.362 E39.77988
G1 X122.367 Y125.989 E39.92040
G1 X121.308 Y126.498 E40.06140
G1 X120.198 Y126.880 E40.20226
G1 X119.004 Y127.138 E40.34885
G1 X117.829 Y127.251 E40.49050
G1 X115.115 Y127.286 E40.81621
G1 X114.587 Y127.300 E40.87959
G1 X113.539 Y127.287 E41.00536
G1 X112.179 Y127.251 E41.16862
G1 X111.123 Y127.156 E41.29585
G1 X110.059 Y126.945 E41.42601
G1 X108.847 Y126.557 E41.57872
G1 X107.695 Y126.017 E41.73140
G1 X106.626 Y125.343 E41.88305
G1 X105.657 Y124.539 E42.03414
G1 X104.804 Y123.622 E42.18443
G1 X104.080 Y122.606 E42.33414
G1 X103.500 Y121.509 E42.48304
G1 X103.066 Y120.335 E42.63324
G1 X102.799 Y119.118 E42.78276
G1 X102.700 Y117.998 E42.91768
G1 X102.742 Y116.857 E43.05469
G1 X102.934 Y115.693 E43.19626
G1 X103.265 Y114.586 E43.33491
G1 X104.398 Y111.770 E43.69916
G1 X105.087 Y110.290 E43.89506
G1 X105.549 Y109.334 E44.02247
G1 X106.297 Y107.876 E44.21911
G1 X106.838 Y106.916 E44.35135
G1 X107.148 Y106.354 E44.42837
G1 X107.477 Y105.820 E44.50363
G1 X109.229 Y103.094 E44.89249
G1 X109.610 Y102.522 E44.97496
G1 X112.411 Y98.891 E45.52526
G0 F9000 X112.696 Y99.402
;TYPE:SKIN
G1 F900 X124.957 Y111.664 E47.60611
G0 F9000 X125.375 Y112.647
G1 F900 X112.449 Y99.721 E49.79972
G0 F9000 X112.967 Y99.108
G1 F900 X124.509 Y110.650 E51.75846
G0 F9000 X123.962 Y109.537
G1 F900 X113.258 Y98.833 E53.57499
G0 F9000 X113.607 Y98.616
G1 F900 X123.339 Y108.348 E55.22657
G0 F9000 X122.668 Y107.112
G1 F900 X113.994 Y98.437 E56.69868
G0 F9000 X114.430 Y98.308
G1 F900 X121.823 Y105.701 E57.95331
G0 F9000 X120.778 Y104.090
G1 F900 X114.935 Y98.247 E58.94490
G0 F9000 X115.554 Y98.301
G1 F900 X119.586 Y102.333 E59.62916
G0 F9000 X112.203 Y100.041
G1 F900 X125.761 Y113.598 E61.92994
G0 F9000 X126.116 Y114.520
G1 F900 X111.957 Y100.361 E64.33280
G0 F9000 X111.710 Y100.679
G1 F900 X126.419 Y115.388 E66.82900
G0 F9000 X126.618 Y116.152
G1 F900 X111.464 Y100.999 E69.40064
G0 F9000 X111.218 Y101.319
G1 F900 X126.696 Y116.797 E72.02734
G0 F9000 X126.756 Y117.422
G1 F900 X110.971 Y101.638 E74.70606
G0 F9000 X110.725 Y101.957
G1 F900 X126.749 Y117.981 E77.42542
G0 F9000 X126.732 Y118.530
G1 F900 X110.479 Y102.277 E80.18365
G0 F9000 X110.232 Y102.596
G1 F900 X126.658 Y119.021 E82.97115
G0 F9000 X126.584 Y119.513
G1 F900 X109.991 Y102.920 E85.78707
G0 F9000 X109.765 Y103.260
G1 F900 X126.468 Y119.963 E88.62166
G0 F9000 X126.343 Y120.403
G1 F900 X109.542 Y103.602 E91.47289
G0 F9000 X109.320 Y103.946
G1 F900 X126.198 Y120.824 E94.33718
G0 F9000 X126.030 Y121.222
G1 F900 X109.099 Y104.291 E97.21047
G0 F9000 X108.878 Y104.636
G1 F900 X125.862 Y121.619 E100.09266
G0 F9000 X125.654 Y121.978
G1 F900 X108.657 Y104.980 E102.97723
G0 F9000 X108.436 Y105.324
G1 F900 X125.447 Y122.335 E105.86410
G0 F9000 X125.226 Y122.680
G1 F900 X108.214 Y105.669 E108.75104
G0 F9000 X107.993 Y106.013
G1 F900 X124.983 Y123.004 E111.63443
G0 F9000 X124.741 Y123.327
G1 F900 X107.775 Y106.361 E114.51365
G0 F9000 X107.562 Y106.714
G1 F900 X124.474 Y123.625 E117.38363
G0 F9000 X124.196 Y123.913
G1 F900 X107.360 Y107.077 E120.24079
G0 F9000 X107.157 Y107.440
G1 F900 X123.918 Y124.201 E123.08523
G0 F9000 X123.608 Y124.457
G1 F900 X106.954 Y107.803 E125.91151
G0 F9000 X106.754 Y108.168
G1 F900 X123.297 Y124.711 E128.71895
G0 F9000 X122.980 Y124.959
G1 F900 X106.561 Y108.541 E131.50526
G0 F9000 X106.370 Y108.915
G1 F900 X122.634 Y125.179 E134.26535
G0 F9000 X122.287 Y125.399
G1 F900 X106.178 Y109.289 E136.99922
G0 F9000 X105.988 Y109.665
G1 F900 X121.925 Y125.601 E139.70374
G0 F9000 X121.543 Y125.785
G1 F900 X105.807 Y110.049 E142.37423
G0 F9000 X105.625 Y110.433
G1 F900 X121.161 Y125.969 E145.01077
G0 F9000 X120.746 Y126.120
G1 F900 X105.443 Y110.817 E147.60778
G0 F9000 X105.262 Y111.202
G1 F900 X120.324 Y126.264 E150.16388
G0 F9000 X119.887 Y126.393
G1 F900 X105.081 Y111.586 E152.67663
G0 F9000 X104.899 Y111.970
G1 F900 X119.422 Y126.493 E155.14126
G0 F9000 X118.957 Y126.594
G1 F900 X104.736 Y112.373 E157.55465
G0 F9000 X104.574 Y112.777
G1 F900 X118.444 Y126.647 E159.90847
G0 F9000 X117.929 Y126.697
G1 F900 X104.412 Y113.180 E162.20238
G0 F9000 X104.249 Y113.583
G1 F900 X117.382 Y126.716 E164.43112
G0 F9000 X116.825 Y126.724
G1 F900 X104.086 Y113.986 E166.59292
G0 F9000 X103.924 Y114.390
G1 F900 X116.268 Y126.733 E168.68768
G0 F9000 X115.710 Y126.741
G1 F900 X103.763 Y114.794 E170.71515
G0 F9000 X103.634 Y115.230
G1 F900 X115.153 Y126.750 E172.67007
G0 F9000 X114.596 Y126.758
G1 F900 X103.504 Y115.666 E174.55245
G0 F9000 X103.407 Y116.135
G1 F900 X114.019 Y126.747 E176.35336
G0 F9000 X113.442 Y126.736
G1 F900 X103.327 Y116.621 E178.06994
G0 F9000 X103.272 Y117.131
G1 F900 X112.864 Y126.724 E179.69784
G0 F9000 X112.287 Y126.712
G1 F900 X103.251 Y117.676 E181.23130
G0 F9000 X103.265 Y118.255
G1 F900 X111.671 Y126.661 E182.65784
G0 F9000 X111.028 Y126.584
G1 F900 X103.320 Y118.876 E183.96593
G0 F9000 X103.451 Y119.573
G1 F900 X110.322 Y126.444 E185.13198
G0 F9000 X109.514 Y126.202
G1 F900 X103.637 Y120.325 E186.12934
G0 F9000 X103.970 Y121.223
G1 F900 X108.582 Y125.836 E186.91211
G0 F9000 X107.326 Y125.145
G1 F900 X104.631 Y122.450 E187.36947
G0 F9000 X117.723 Y99.904
G1 F900 X116.466 Y98.647 E187.58279
;LAYER:1
M106 S51
G0 F9000 X116.962 Y98.865 Z0.340
;TYPE:WALL-INNER
G1 F1800 X117.207 Y99.062 E187.58782
G1 X118.205 Y100.264 E187.61281
G1 X119.182 Y101.550 E187.63865
G1 X119.763 Y102.325 E187.65415
G1 X121.208 Y104.463 E187.69544
G1 X121.609 Y105.061 E187.70696
G1 X122.393 Y106.397 E187.73174
G1 X122.773 Y107.010 E187.74328
G1 X123.118 Y107.637 E187.75473
G1 X123.857 Y109.007 E187.77964
G1 X124.173 Y109.639 E187.79095
G1 X124.629 Y110.571 E187.80755
G1 X125.240 Y111.957 E187.83178
G1 X125.837 Y113.405 E187.85684
G1 X126.479 Y115.067 E187.88535
G1 X126.755 Y116.112 E187.90264
G1 X126.899 Y117.289 E187.92161
G1 X126.889 Y118.105 E187.93467
G1 X126.884 Y118.471 E187.94053
G1 X126.706 Y119.647 E187.95956
G1 X126.406 Y120.690 E187.97692
G1 X126.112 Y121.386 E187.98901
G1 X125.982 Y121.694 E187.99436
G1 X125.429 Y122.646 E188.01198
G1 X124.768 Y123.522 E188.02953
G1 X123.991 Y124.327 E188.04744
G1 X123.121 Y125.037 E188.06540
G1 X122.175 Y125.638 E188.08333
G1 X121.151 Y126.129 E188.10151
G1 X120.092 Y126.493 E188.11942
G1 X118.942 Y126.742 E188.13825
G1 X117.809 Y126.851 E188.15646
G1 X115.258 Y126.884 E188.19728
G1 X114.656 Y126.900 E188.20691
G1 X113.474 Y126.885 E188.22583
G1 X112.208 Y126.852 E188.24609
G1 X111.492 Y126.788 E188.25759
G1 X111.190 Y126.761 E188.26244
G1 X110.154 Y126.555 E188.27934
G1 X108.989 Y126.182 E188.29892
G1 X107.887 Y125.666 E188.31839
G1 X106.864 Y125.020 E188.33774
G1 X105.932 Y124.248 E188.35711
G1 X105.117 Y123.371 E188.37626
G1 X104.421 Y122.394 E188.39546
G1 X103.866 Y121.346 E188.41443
G1 X103.452 Y120.225 E188.43355
G1 X103.196 Y119.059 E188.45265
G1 X103.131 Y118.314 E188.46462
G1 X103.101 Y117.983 E188.46993
G1 X103.128 Y117.235 E188.48191
G1 X103.141 Y116.897 E188.48732
G1 X103.268 Y116.125 E188.49984
G1 X103.326 Y115.778 E188.50547
G1 X103.643 Y114.717 E188.52319
G1 X104.763 Y111.934 E188.57118
G1 X105.413 Y110.540 E188.59579
G1 X105.932 Y109.463 E188.61492
G1 X106.643 Y108.079 E188.63982
G1 X107.143 Y107.191 E188.65612
G1 X107.484 Y106.572 E188.66743
G1 X107.862 Y105.958 E188.67897
