;FLAVOR:UltiGCode
;TIME: 297
;MATERIAL: 535.841674

;Layer count: 11
M106 S127
G0 F4000.000000
G1 F1000.000000
G92 E0.0000
;LAYER: 0
G0 Z0.3000
G10
G0 X40.0000 Y50.0000
G11
G1 X40.4894 Y46.9098 E0.347632
G1 X41.9098 Y44.1221 E0.695264
G1 X44.1221 Y41.9098 E1.042896
G1 X46.9098 Y40.4894 E1.390529
G1 X50.0000 Y40.0000 E1.738161
G1 X53.0902 Y40.4894 E2.085793
G1 X55.8779 Y41.9098 E2.433425
G1 X58.0902 Y44.1221 E2.781057
G1 X59.5106 Y46.9098 E3.128689
G1 X60.0000 Y50.0000 E3.476321
G1 X59.5106 Y53.0902 E3.823954
G1 X58.0902 Y55.8779 E4.171586
G1 X55.8779 Y58.0902 E4.519218
G1 X53.0902 Y59.5106 E4.866850
G1 X50.0000 Y60.0000 E5.214482
G1 X46.9098 Y59.5106 E5.562114
G1 X44.1221 Y58.0902 E5.909746
G1 X41.9098 Y55.8779 E6.257379
G1 X40.4894 Y53.0902 E6.605011
G1 X40.0000 Y50.0000 E6.952643
G10
G0 X40.3000 Y50.0000
G11
G1 X40.7748 Y47.0025 E7.289846
G1 X42.1525 Y44.2985 E7.627049
G1 X44.2985 Y42.1525 E7.964252
G1 X47.0025 Y40.7748 E8.301456
G1 X50.0000 Y40.3000 E8.638659
G1 X52.9975 Y40.7748 E8.975862
G1 X55.7015 Y42.1525 E9.313065
G1 X57.8475 Y44.2985 E9.650268
G1 X59.2252 Y47.0025 E9.987472
G1 X59.7000 Y50.0000 E10.324675
G1 X59.2252 Y52.9975 E10.661878
G1 X57.8475 Y55.7015 E10.999081
G1 X55.7015 Y57.8475 E11.336284
G1 X52.9975 Y59.2252 E11.673487
G1 X50.0000 Y59.7000 E12.010691
G1 X47.0025 Y59.2252 E12.347894
G1 X44.2985 Y57.8475 E12.685097
G1 X42.1525 Y55.7015 E13.022300
G1 X40.7748 Y52.9975 E13.359503
G1 X40.3000 Y50.0000 E13.696706
G0 X40.6000 Y50.0000
G1 X40.6000 Y50.0000 E13.713373
G0 X40.9000 Y51.8941
G1 X40.9000 Y48.1059 E14.134290
G0 X41.2000 Y46.8206
G1 X41.2000 Y53.1794 E14.840821
G0 X41.5000 Y53.7682
G1 X41.5000 Y46.2318 E15.678193
G0 X41.8000 Y45.6430
G1 X41.8000 Y54.3570 E16.646406
G0 X42.1000 Y54.9457
G1 X42.1000 Y45.0543 E17.745459
G0 X42.4000 Y44.4701
G1 X42.4000 Y55.5299 E18.974335
G0 X42.7000 Y55.8299
G1 X42.7000 Y44.1701 E20.269877
G0 X43.0000 Y43.8701
G1 X43.0000 Y56.1299 E21.632086
G0 X43.3000 Y56.4299
G1 X43.3000 Y43.5701 E23.060962
G0 X43.6000 Y43.2701
G1 X43.6000 Y56.7299 E24.556505
G0 X43.9000 Y57.0299
G1 X43.9000 Y42.9701 E26.118714
G0 X44.2000 Y42.6701
G1 X44.2000 Y57.3299 E27.747589
G0 X44.5000 Y57.6176
G1 X44.5000 Y42.3824 E29.440387
G0 X44.8000 Y42.2296
G1 X44.8000 Y57.7704 E31.167154
G0 X45.1000 Y57.9233
G1 X45.1000 Y42.0767 E32.927888
G0 X45.4000 Y41.9238
G1 X45.4000 Y58.0762 E34.722591
G0 X45.7000 Y58.2290
G1 X45.7000 Y41.7710 E36.551262
G0 X46.0000 Y41.6181
G1 X46.0000 Y58.3819 E38.413902
G0 X46.3000 Y58.5347
G1 X46.3000 Y41.4653 E40.310510
G0 X46.6000 Y41.3124
G1 X46.6000 Y58.6876 E42.241086
G0 X46.9000 Y58.8405
G1 X46.9000 Y41.1595 E44.205631
G0 X47.2000 Y41.0435
G1 X47.2000 Y58.9565 E46.195970
G0 X47.5000 Y59.0040
G1 X47.5000 Y40.9960 E48.196867
G0 X47.8000 Y40.9484
G1 X47.8000 Y59.0516 E50.208324
G0 X48.1000 Y59.0991
G1 X48.1000 Y40.9009 E52.230339
G0 X48.4000 Y40.8534
G1 X48.4000 Y59.1466 E54.262914
G0 X48.7000 Y59.1941
G1 X48.7000 Y40.8059 E56.306047
G0 X49.0000 Y40.7584
G1 X49.0000 Y59.2416 E58.359739
G0 X49.3000 Y59.2891
G1 X49.3000 Y40.7109 E60.423991
G0 X49.6000 Y40.6634
G1 X49.6000 Y59.3366 E62.498801
G0 X49.9000 Y59.3842
G1 X49.9000 Y40.6158 E64.584170
G0 X50.2000 Y40.6317
G1 X50.2000 Y59.3683 E66.666020
G0 X50.5000 Y59.3208
G1 X50.5000 Y40.6792 E68.737310
G0 X50.8000 Y40.7267
G1 X50.8000 Y59.2733 E70.798042
G0 X51.1000 Y59.2258
G1 X51.1000 Y40.7742 E72.848215
G0 X51.4000 Y40.8217
G1 X51.4000 Y59.1783 E74.887828
G0 X51.7000 Y59.1307
G1 X51.7000 Y40.8693 E76.916883
G0 X52.0000 Y40.9168
G1 X52.0000 Y59.0832 E78.935379
G0 X52.3000 Y59.0357
G1 X52.3000 Y40.9643 E80.943316
G0 X52.6000 Y41.0118
G1 X52.6000 Y58.9882 E82.940694
G0 X52.9000 Y58.9407
G1 X52.9000 Y41.0593 E84.927513
G0 X53.2000 Y41.2105
G1 X53.2000 Y58.7895 E86.880735
G0 X53.5000 Y58.6366
G1 X53.5000 Y41.3634 E88.799988
G0 X53.8000 Y41.5162
G1 X53.8000 Y58.4838 E90.685273
G0 X54.1000 Y58.3309
G1 X54.1000 Y41.6691 E92.536590
G0 X54.4000 Y41.8219
G1 X54.4000 Y58.1781 E94.353939
G0 X54.7000 Y58.0252
G1 X54.7000 Y41.9748 E96.137319
G0 X55.0000 Y42.1276
G1 X55.0000 Y57.8724 E97.886731
G0 X55.3000 Y57.7195
G1 X55.3000 Y42.2805 E99.602174
G0 X55.6000 Y42.4701
G1 X55.6000 Y57.5299 E101.275494
G0 X55.9000 Y57.2299
G1 X55.9000 Y42.7701 E102.882148
G0 X56.2000 Y43.0701
G1 X56.2000 Y56.9299 E104.422135
G0 X56.5000 Y56.6299
G1 X56.5000 Y43.3701 E105.895455
G0 X56.8000 Y43.6701
G1 X56.8000 Y56.3299 E107.302109
G0 X57.1000 Y56.0299
G1 X57.1000 Y43.9701 E108.642096
G0 X57.4000 Y44.2701
G1 X57.4000 Y55.7299 E109.915416
G0 X57.7000 Y55.3383
G1 X57.7000 Y44.6617 E111.101696
G0 X58.0000 Y45.2505
G1 X58.0000 Y54.7495 E112.157136
G0 X58.3000 Y54.1607
G1 X58.3000 Y45.8393 E113.081735
G0 X58.6000 Y46.4281
G1 X58.6000 Y53.5719 E113.875493
G0 X58.9000 Y52.9831
G1 X58.9000 Y47.0169 E114.538411
G0 X59.2000 Y48.7372
G1 X59.2000 Y51.2628 E114.819022
;LAYER: 1
G0 Z0.4000
G10
G0 X40.0000 Y50.0000
G11
G1 X40.4894 Y46.9098 E115.166654
G1 X41.9098 Y44.1221 E115.514286
G1 X44.1221 Y41.9098 E115.861919
G1 X46.9098 Y40.4894 E116.209551
G1 X50.0000 Y40.0000 E116.557183
G1 X53.0902 Y40.4894 E116.904815
G1 X55.8779 Y41.9098 E117.252447
G1 X58.0902 Y44.1221 E117.600079
G1 X59.5106 Y46.9098 E117.947711
G1 X60.0000 Y50.0000 E118.295344
G1 X59.5106 Y53.0902 E118.642976
G1 X58.0902 Y55.8779 E118.990608
G1 X55.8779 Y58.0902 E119.338240
G1 X53.0902 Y59.5106 E119.685872
G1 X50.0000 Y60.0000 E120.033504
G1 X46.9098 Y59.5106 E120.381136
G1 X44.1221 Y58.0902 E120.728769
G1 X41.9098 Y55.8779 E121.076401
G1 X40.4894 Y53.0902 E121.424033
G1 X40.0000 Y50.0000 E121.771665
G10
G0 X40.3000 Y50.0000
G11
G1 X40.7748 Y47.0025 E122.108868
G1 X42.1525 Y44.2985 E122.446071
G1 X44.2985 Y42.1525 E122.783275
G1 X47.0025 Y40.7748 E123.120478
G1 X50.0000 Y40.3000 E123.457681
G1 X52.9975 Y40.7748 E123.794884
G1 X55.7015 Y42.1525 E124.132087
G1 X57.8475 Y44.2985 E124.469290
G1 X59.2252 Y47.0025 E124.806494
G1 X59.7000 Y50.0000 E125.143697
G1 X59.2252 Y52.9975 E125.480900
G1 X57.8475 Y55.7015 E125.818103
G1 X55.7015 Y57.8475 E126.155306
G1 X52.9975 Y59.2252 E126.492510
G1 X50.0000 Y59.7000 E126.829713
G1 X47.0025 Y59.2252 E127.166916
G1 X44.2985 Y57.8475 E127.504119
G1 X42.1525 Y55.7015 E127.841322
G1 X40.7748 Y52.9975 E128.178525
G1 X40.3000 Y50.0000 E128.515729
G0 X50.0000 Y40.6000
G1 X50.0000 Y40.6000 E128.532395
G0 X51.8941 Y40.9000
G1 X48.1059 Y40.9000 E128.953312
G0 X46.8206 Y41.2000
G1 X53.1794 Y41.2000 E129.659843
G0 X53.7682 Y41.5000
G1 X46.2318 Y41.5000 E130.497215
G0 X45.6430 Y41.8000
G1 X54.3570 Y41.8000 E131.465428
G0 X54.9457 Y42.1000
G1 X45.0543 Y42.1000 E132.564481
G0 X44.4701 Y42.4000
G1 X55.5299 Y42.4000 E133.793357
G0 X55.8299 Y42.7000
G1 X44.1701 Y42.7000 E135.088899
G0 X43.8701 Y43.0000
G1 X56.1299 Y43.0000 E136.451108
G0 X56.4299 Y43.3000
G1 X43.5701 Y43.3000 E137.879984
G0 X43.2701 Y43.6000
G1 X56.7299 Y43.6000 E139.375527
G0 X57.0299 Y43.9000
G1 X42.9701 Y43.9000 E140.937736
G0 X42.6701 Y44.2000
G1 X57.3299 Y44.2000 E142.566612
G0 X57.6176 Y44.5000
G1 X42.3824 Y44.5000 E144.259409
G0 X42.2296 Y44.8000
G1 X57.7704 Y44.8000 E145.986176
G0 X57.9233 Y45.1000
G1 X42.0767 Y45.1000 E147.746910
G0 X41.9238 Y45.4000
G1 X58.0762 Y45.4000 E149.541613
G0 X58.2290 Y45.7000
G1 X41.7710 Y45.7000 E151.370284
G0 X41.6181 Y46.0000
G1 X58.3819 Y46.0000 E153.232924
G0 X58.5347 Y46.3000
G1 X41.4653 Y46.3000 E155.129532
G0 X41.3124 Y46.6000
G1 X58.6876 Y46.6000 E157.060109
G0 X58.8405 Y46.9000
G1 X41.1595 Y46.9000 E159.024653
G0 X41.0435 Y47.2000
G1 X58.9565 Y47.2000 E161.014992
G0 X59.0040 Y47.5000
G1 X40.9960 Y47.5000 E163.015889
G0 X40.9484 Y47.8000
G1 X59.0516 Y47.8000 E165.027346
G0 X59.0991 Y48.1000
G1 X40.9009 Y48.1000 E167.049361
G0 X40.8534 Y48.4000
G1 X59.1466 Y48.4000 E169.081936
G0 X59.1941 Y48.7000
G1 X40.8059 Y48.7000 E171.125069
G0 X40.7584 Y49.0000
G1 X59.2416 Y49.0000 E173.178761
G0 X59.2891 Y49.3000
G1 X40.7109 Y49.3000 E175.243013
G0 X40.6634 Y49.6000
G1 X59.3366 Y49.6000 E177.317823
G0 X59.3842 Y49.9000
G1 X40.6158 Y49.9000 E179.403192
G0 X40.6317 Y50.2000
G1 X59.3683 Y50.2000 E181.485042
G0 X59.3208 Y50.5000
G1 X40.6792 Y50.5000 E183.556333
G0 X40.7267 Y50.8000
G1 X59.2733 Y50.8000 E185.617064
G0 X59.2258 Y51.1000
G1 X40.7742 Y51.1000 E187.667237
G0 X40.8217 Y51.4000
G1 X59.1783 Y51.4000 E189.706851
G0 X59.1307 Y51.7000
G1 X40.8693 Y51.7000 E191.735905
G0 X40.9168 Y52.0000
G1 X59.0832 Y52.0000 E193.754401
G0 X59.0357 Y52.3000
G1 X40.9643 Y52.3000 E195.762338
G0 X41.0118 Y52.6000
G1 X58.9882 Y52.6000 E197.759716
G0 X58.9407 Y52.9000
G1 X41.0593 Y52.9000 E199.746535
G0 X41.2105 Y53.2000
G1 X58.7895 Y53.2000 E201.699757
G0 X58.6366 Y53.5000
G1 X41.3634 Y53.5000 E203.619010
G0 X41.5162 Y53.8000
G1 X58.4838 Y53.8000 E205.504296
G0 X58.3309 Y54.1000
G1 X41.6691 Y54.1000 E207.355612
G0 X41.8219 Y54.4000
G1 X58.1781 Y54.4000 E209.172961
G0 X58.0252 Y54.7000
G1 X41.9748 Y54.7000 E210.956341
G0 X42.1276 Y55.0000
G1 X57.8724 Y55.0000 E212.705753
G0 X57.7195 Y55.3000
G1 X42.2805 Y55.3000 E214.421196
G0 X42.4701 Y55.6000
G1 X57.5299 Y55.6000 E216.094517
G0 X57.2299 Y55.9000
G1 X42.7701 Y55.9000 E217.701170
G0 X43.0701 Y56.2000
G1 X56.9299 Y56.2000 E219.241157
G0 X56.6299 Y56.5000
G1 X43.3701 Y56.5000 E220.714477
G0 X43.6701 Y56.8000
G1 X56.3299 Y56.8000 E222.121131
G0 X56.0299 Y57.1000
G1 X43.9701 Y57.1000 E223.461118
G0 X44.2701 Y57.4000
G1 X55.7299 Y57.4000 E224.734438
G0 X55.3383 Y57.7000
G1 X44.6617 Y57.7000 E225.920718
G0 X45.2505 Y58.0000
G1 X54.7495 Y58.0000 E226.976158
G0 X54.1607 Y58.3000
G1 X45.8393 Y58.3000 E227.900757
G0 X46.4281 Y58.6000
G1 X53.5719 Y58.6000 E228.694516
G0 X52.9831 Y58.9000
G1 X47.0169 Y58.9000 E229.357433
G0 X48.7372 Y59.2000
G1 X51.2628 Y59.2000 E229.638044
;LAYER: 2
G0 Z0.5000
G10
G0 X40.0000 Y50.0000
G11
G1 X40.4894 Y46.9098 E229.985676
G1 X41.9098 Y44.1221 E230.333309
G1 X44.1221 Y41.9098 E230.680941
G1 X46.9098 Y40.4894 E231.028573
G1 X50.0000 Y40.0000 E231.376205
G1 X53.0902 Y40.4894 E231.723837
G1 X55.8779 Y41.9098 E232.071469
G1 X58.0902 Y44.1221 E232.419101
G1 X59.5106 Y46.9098 E232.766734
G1 X60.0000 Y50.0000 E233.114366
G1 X59.5106 Y53.0902 E233.461998
G1 X58.0902 Y55.8779 E233.809630
G1 X55.8779 Y58.0902 E234.157262
G1 X53.0902 Y59.5106 E234.504894
G1 X50.0000 Y60.0000 E234.852526
G1 X46.9098 Y59.5106 E235.200159
G1 X44.1221 Y58.0902 E235.547791
G1 X41.9098 Y55.8779 E235.895423
G1 X40.4894 Y53.0902 E236.243055
G1 X40.0000 Y50.0000 E236.590687
G0 X40.3000 Y50.0000
G1 X40.3000 Y50.0000 E236.607354
G0 X45.3000 Y58.3578
G1 X45.3000 Y41.6422 E238.464635
G0 X50.3000 Y40.3475
G1 X50.3000 Y59.6525 E240.609631
G0 X55.3000 Y58.0520
G1 X55.3000 Y41.9480 E242.398975
;LAYER: 3
G0 Z0.6000
G10
G0 X40.0000 Y50.0000
G11
G1 X40.4894 Y46.9098 E242.746607
G1 X41.9098 Y44.1221 E243.094239
G1 X44.1221 Y41.9098 E243.441872
G1 X46.9098 Y40.4894 E243.789504
G1 X50.0000 Y40.0000 E244.137136
G1 X53.0902 Y40.4894 E244.484768
G1 X55.8779 Y41.9098 E244.832400
G1 X58.0902 Y44.1221 E245.180032
G1 X59.5106 Y46.9098 E245.527664
G1 X60.0000 Y50.0000 E245.875297
G1 X59.5106 Y53.0902 E246.222929
G1 X58.0902 Y55.8779 E246.570561
G1 X55.8779 Y58.0902 E246.918193
G1 X53.0902 Y59.5106 E247.265825
G1 X50.0000 Y60.0000 E247.613457
G1 X46.9098 Y59.5106 E247.961089
G1 X44.1221 Y58.0902 E248.308722
G1 X41.9098 Y55.8779 E248.656354
G1 X40.4894 Y53.0902 E249.003986
G1 X40.0000 Y50.0000 E249.351618
G0 X50.0000 Y40.3000
G1 X50.0000 Y40.3000 E249.368285
G0 X58.3578 Y45.3000
G1 X41.6422 Y45.3000 E251.225565
G0 X40.3475 Y50.3000
G1 X59.6525 Y50.3000 E253.370562
G0 X58.0520 Y55.3000
G1 X41.9480 Y55.3000 E255.159906
;LAYER: 4
G0 Z0.7000
G10
G0 X40.0000 Y50.0000
G11
G1 X40.4894 Y46.9098 E255.507538
G1 X41.9098 Y44.1221 E255.855170
G1 X44.1221 Y41.9098 E256.202802
G1 X46.9098 Y40.4894 E256.550435
G1 X50.0000 Y40.0000 E256.898067
G1 X53.0902 Y40.4894 E257.245699
G1 X55.8779 Y41.9098 E257.593331
G1 X58.0902 Y44.1221 E257.940963
G1 X59.5106 Y46.9098 E258.288595
G1 X60.0000 Y50.0000 E258.636227
G1 X59.5106 Y53.0902 E258.983860
G1 X58.0902 Y55.8779 E259.331492
G1 X55.8779 Y58.0902 E259.679124
G1 X53.0902 Y59.5106 E260.026756
G1 X50.0000 Y60.0000 E260.374388
G1 X46.9098 Y59.5106 E260.722020
G1 X44.1221 Y58.0902 E261.069652
G1 X41.9098 Y55.8779 E261.417285
G1 X40.4894 Y53.0902 E261.764917
G1 X40.0000 Y50.0000 E262.112549
G0 X40.3000 Y50.0000
G1 X40.3000 Y50.0000 E262.129216
G0 X45.3000 Y58.3578
G1 X45.3000 Y41.6422 E263.986496
G0 X50.3000 Y40.3475
G1 X50.3000 Y59.6525 E266.131493
G0 X55.3000 Y58.0520
G1 X55.3000 Y41.9480 E267.920837
;LAYER: 5
G0 Z0.8000
G10
G0 X40.0000 Y50.0000
G11
G1 X40.4894 Y46.9098 E268.268469
G1 X41.9098 Y44.1221 E268.616101
G1 X44.1221 Y41.9098 E268.963733
G1 X46.9098 Y40.4894 E269.311365
G1 X50.0000 Y40.0000 E269.658998
G1 X53.0902 Y40.4894 E270.006630
G1 X55.8779 Y41.9098 E270.354262
G1 X58.0902 Y44.1221 E270.701894
G1 X59.5106 Y46.9098 E271.049526
G1 X60.0000 Y50.0000 E271.397158
G1 X59.5106 Y53.0902 E271.744790
G1 X58.0902 Y55.8779 E272.092423
G1 X55.8779 Y58.0902 E272.440055
G1 X53.0902 Y59.5106 E272.787687
G1 X50.0000 Y60.0000 E273.135319
G1 X46.9098 Y59.5106 E273.482951
G1 X44.1221 Y58.0902 E273.830583
G1 X41.9098 Y55.8779 E274.178215
G1 X40.4894 Y53.0902 E274.525848
G1 X40.0000 Y50.0000 E274.873480
G0 X50.0000 Y40.3000
G1 X50.0000 Y40.3000 E274.890146
G0 X58.3578 Y45.3000
G1 X41.6422 Y45.3000 E276.747427
G0 X40.3475 Y50.3000
G1 X59.6525 Y50.3000 E278.892424
G0 X58.0520 Y55.3000
G1 X41.9480 Y55.3000 E280.681768
;LAYER: 6
G0 Z0.9000
G10
G0 X40.0000 Y50.0000
G11
G1 X40.4894 Y46.9098 E281.029400
G1 X41.9098 Y44.1221 E281.377032
G1 X44.1221 Y41.9098 E281.724664
G1 X46.9098 Y40.4894 E282.072296
G1 X50.0000 Y40.0000 E282.419928
G1 X53.0902 Y40.4894 E282.767561
G1 X55.8779 Y41.9098 E283.115193
G1 X58.0902 Y44.1221 E283.462825
G1 X59.5106 Y46.9098 E283.810457
G1 X60.0000 Y50.0000 E284.158089
G1 X59.5106 Y53.0902 E284.505721
G1 X58.0902 Y55.8779 E284.853353
G1 X55.8779 Y58.0902 E285.200986
G1 X53.0902 Y59.5106 E285.548618
G1 X50.0000 Y60.0000 E285.896250
G1 X46.9098 Y59.5106 E286.243882
G1 X44.1221 Y58.0902 E286.591514
G1 X41.9098 Y55.8779 E286.939146
G1 X40.4894 Y53.0902 E287.286778
G1 X40.0000 Y50.0000 E287.634411
G0 X40.3000 Y50.0000
G1 X40.3000 Y50.0000 E287.651077
G0 X45.3000 Y58.3578
G1 X45.3000 Y41.6422 E289.508358
G0 X50.3000 Y40.3475
G1 X50.3000 Y59.6525 E291.653355
G0 X55.3000 Y58.0520
G1 X55.3000 Y41.9480 E293.442699
;LAYER: 7
G0 Z1.0000
G10
G0 X40.0000 Y50.0000
G11
G1 X40.4894 Y46.9098 E293.790331
G1 X41.9098 Y44.1221 E294.137963
G1 X44.1221 Y41.9098 E294.485595
G1 X46.9098 Y40.4894 E294.833227
G1 X50.0000 Y40.0000 E295.180859
G1 X53.0902 Y40.4894 E295.528491
G1 X55.8779 Y41.9098 E295.876124
G1 X58.0902 Y44.1221 E296.223756
G1 X59.5106 Y46.9098 E296.571388
G1 X60.0000 Y50.0000 E296.919020
G1 X59.5106 Y53.0902 E297.266652
G1 X58.0902 Y55.8779 E297.614284
G1 X55.8779 Y58.0902 E297.961916
G1 X53.0902 Y59.5106 E298.309549
G1 X50.0000 Y60.0000 E298.657181
G1 X46.9098 Y59.5106 E299.004813
G1 X44.1221 Y58.0902 E299.352445
G1 X41.9098 Y55.8779 E299.700077
G1 X40.4894 Y53.0902 E300.047709
G1 X40.0000 Y50.0000 E300.395341
G0 X50.0000 Y40.3000
G1 X50.0000 Y40.3000 E300.412008
G0 X58.3578 Y45.3000
G1 X41.6422 Y45.3000 E302.269289
G0 X40.3475 Y50.3000
G1 X59.6525 Y50.3000 E304.414285
G0 X58.0520 Y55.3000
G1 X41.9480 Y55.3000 E306.203629
;LAYER: 8
G0 Z1.1000
G10
G0 X40.0000 Y50.0000
G11
G1 X40.4894 Y46.9098 E306.551262
G1 X41.9098 Y44.1221 E306.898894
G1 X44.1221 Y41.9098 E307.246526
G1 X46.9098 Y40.4894 E307.594158
G1 X50.0000 Y40.0000 E307.941790
G1 X53.0902 Y40.4894 E308.289422
G1 X55.8779 Y41.9098 E308.637054
G1 X58.0902 Y44.1221 E308.984687
G1 X59.5106 Y46.9098 E309.332319
G1 X60.0000 Y50.0000 E309.679951
G1 X59.5106 Y53.0902 E310.027583
G1 X58.0902 Y55.8779 E310.375215
G1 X55.8779 Y58.0902 E310.722847
G1 X53.0902 Y59.5106 E311.070479
G1 X50.0000 Y60.0000 E311.418112
G1 X46.9098 Y59.5106 E311.765744
G1 X44.1221 Y58.0902 E312.113376
G1 X41.9098 Y55.8779 E312.461008
G1 X40.4894 Y53.0902 E312.808640
G1 X40.0000 Y50.0000 E313.156272
G10
G0 X40.3000 Y50.0000
G11
G1 X40.7748 Y47.0025 E313.493475
G1 X42.1525 Y44.2985 E313.830679
G1 X44.2985 Y42.1525 E314.167882
