;FLAVOR:UltiGCode
;TIME: 813
;MATERIAL: 1280.263569

;Layer count: 146
M106 S127
G0 F4000.000000
G1 F1000.000000
G92 E0.0000
;LAYER: 0
G0 Z0.3000
G10
G0 X60.1110 Y50.1110
G11
G1 X45.1110 Y58.7713 E1.924501
G1 X45.1110 Y41.4507 E3.849002
G1 X60.1110 Y50.1110 E5.773503
G10
G0 X52.6760 Y63.1389
G11
G1 X60.1110 Y58.8463 E6.727420
G1 X52.6760 Y54.5536 E7.681337
G1 X52.6760 Y63.1389 E8.635254
G10
G0 X60.1110 Y63.2139
G11
G1 X56.4584 Y65.3227 E9.103879
G1 X56.4584 Y61.1051 E9.572504
G1 X60.1110 Y63.2139 E10.041130
G10
G0 X58.4796 Y66.4896
G11
G1 X60.1110 Y65.5477 E10.250442
G1 X60.1110 Y67.4315 E10.459755
G1 X58.4796 Y66.4896 E10.669068
G10
G0 X58.2198 Y64.4558
G11
G1 X58.2198 Y66.3396 E10.878380
G1 X56.5883 Y65.3977 E11.087693
G1 X58.2198 Y64.4558 E11.297005
G10
G0 X60.1110 Y65.2477
G11
G1 X58.4796 Y64.3058 E11.506318
G1 X60.1110 Y63.3639 E11.715631
G1 X60.1110 Y65.2477 E11.924943
G10
G0 X60.1110 Y60.8801
G11
G1 X58.4796 Y59.9382 E12.134256
G1 X60.1110 Y58.9963 E12.343568
G1 X60.1110 Y60.8801 E12.552881
G10
G0 X58.4796 Y62.1220
G11
G1 X60.1110 Y61.1801 E12.762194
G1 X60.1110 Y63.0639 E12.971506
G1 X58.4796 Y62.1220 E13.180819
G10
G0 X58.2198 Y60.0882
G11
G1 X58.2198 Y61.9720 E13.390132
G1 X56.5883 Y61.0301 E13.599444
G1 X58.2198 Y60.0882 E13.808757
G10
G0 X54.4373 Y62.2720
G11
G1 X54.4373 Y64.1558 E14.018069
G1 X52.8059 Y63.2139 E14.227382
G1 X54.4373 Y62.2720 E14.436695
G10
G0 X56.3285 Y63.0639
G11
G1 X54.6971 Y62.1220 E14.646007
G1 X56.3285 Y61.1801 E14.855320
G1 X56.3285 Y63.0639 E15.064632
G10
G0 X54.6971 Y64.3058
G11
G1 X56.3285 Y63.3639 E15.273945
G1 X56.3285 Y65.2477 E15.483258
G1 X54.6971 Y64.3058 E15.692570
G10
G0 X48.8935 Y60.9551
G11
G1 X48.8935 Y56.7374 E16.161195
G1 X52.5460 Y58.8463 E16.629821
G1 X48.8935 Y60.9551 E17.098446
G10
G0 X46.8723 Y57.9043
G11
G1 X46.8723 Y59.7882 E17.307759
G1 X45.2409 Y58.8463 E17.517071
G1 X46.8723 Y57.9043 E17.726384
G10
G0 X48.7636 Y58.6963
G11
G1 X47.1321 Y57.7543 E17.935696
G1 X48.7636 Y56.8124 E18.145009
G1 X48.7636 Y58.6963 E18.354322
G10
G0 X47.1321 Y59.9382
G11
G1 X48.7636 Y58.9963 E18.563634
G1 X48.7636 Y60.8801 E18.772947
G1 X47.1321 Y59.9382 E18.982259
G10
G0 X50.9146 Y62.1220
G11
G1 X52.5460 Y61.1801 E19.191572
G1 X52.5460 Y63.0639 E19.400885
G1 X50.9146 Y62.1220 E19.610197
G10
G0 X50.6548 Y60.0882
G11
G1 X50.6548 Y61.9720 E19.819510
G1 X49.0234 Y61.0301 E20.028822
G1 X50.6548 Y60.0882 E20.238135
G10
G0 X52.5460 Y60.8801
G11
G1 X50.9146 Y59.9382 E20.447448
G1 X52.5460 Y58.9963 E20.656760
G1 X52.5460 Y60.8801 E20.866073
G10
G0 X52.5460 Y56.5124
G11
G1 X50.9146 Y55.5705 E21.075386
G1 X52.5460 Y54.6286 E21.284698
G1 X52.5460 Y56.5124 E21.494011
G10
G0 X50.9146 Y57.7543
G11
G1 X52.5460 Y56.8124 E21.703323
G1 X52.5460 Y58.6963 E21.912636
G1 X50.9146 Y57.7543 E22.121949
G10
G0 X50.6548 Y55.7205
G11
G1 X50.6548 Y57.6043 E22.331261
G1 X49.0234 Y56.6624 E22.540574
G1 X50.6548 Y55.7205 E22.749886
G10
G0 X56.4584 Y52.3698
G11
G1 X60.1110 Y54.4786 E23.218512
G1 X56.4584 Y56.5874 E23.687137
G1 X56.4584 Y52.3698 E24.155762
G10
G0 X60.1110 Y52.1448
G11
G1 X58.4796 Y51.2029 E24.365075
G1 X60.1110 Y50.2610 E24.574387
G1 X60.1110 Y52.1448 E24.783700
G10
G0 X58.4796 Y53.3867
G11
G1 X60.1110 Y52.4448 E24.993013
G1 X60.1110 Y54.3286 E25.202325
G1 X58.4796 Y53.3867 E25.411638
G10
G0 X58.2198 Y51.3529
G11
G1 X58.2198 Y53.2367 E25.620950
G1 X56.5883 Y52.2948 E25.830263
G1 X58.2198 Y51.3529 E26.039576
G10
G0 X54.4373 Y53.5367
G11
G1 X54.4373 Y55.4205 E26.248888
G1 X52.8059 Y54.4786 E26.458201
G1 X54.4373 Y53.5367 E26.667513
G10
G0 X56.3285 Y54.3286
G11
G1 X54.6971 Y53.3867 E26.876826
G1 X56.3285 Y52.4448 E27.086139
G1 X56.3285 Y54.3286 E27.295451
G10
G0 X54.6971 Y55.5705
G11
G1 X56.3285 Y54.6286 E27.504764
G1 X56.3285 Y56.5124 E27.714077
G1 X54.6971 Y55.5705 E27.923389
G10
G0 X58.4796 Y57.7543
G11
G1 X60.1110 Y56.8124 E28.132702
G1 X60.1110 Y58.6963 E28.342014
G1 X58.4796 Y57.7543 E28.551327
G10
G0 X58.2198 Y55.7205
G11
G1 X58.2198 Y57.6043 E28.760640
G1 X56.5883 Y56.6624 E28.969952
G1 X58.2198 Y55.7205 E29.179265
G10
G0 X60.1110 Y56.5124
G11
G1 X58.4796 Y55.5705 E29.388577
G1 X60.1110 Y54.6286 E29.597890
G1 X60.1110 Y56.5124 E29.807203
G10
G0 X60.1110 Y41.3757
G11
G1 X52.6760 Y37.0831 E30.761120
G1 X52.6760 Y45.6684 E31.715037
G1 X60.1110 Y41.3757 E32.668954
G10
G0 X56.4584 Y34.8993
G11
G1 X60.1110 Y37.0081 E33.137579
G1 X56.4584 Y39.1169 E33.606204
G1 X56.4584 Y34.8993 E34.074830
G10
G0 X60.1110 Y34.6743
G11
G1 X58.4796 Y33.7324 E34.284142
G1 X60.1110 Y32.7905 E34.493455
G1 X60.1110 Y34.6743 E34.702767
G10
G0 X58.4796 Y35.9162
G11
G1 X60.1110 Y34.9743 E34.912080
G1 X60.1110 Y36.8581 E35.121393
G1 X58.4796 Y35.9162 E35.330705
G10
G0 X58.2198 Y33.8824
G11
G1 X58.2198 Y35.7662 E35.540018
G1 X56.5883 Y34.8243 E35.749331
G1 X58.2198 Y33.8824 E35.958643
G10
G0 X54.4373 Y36.0662
G11
G1 X54.4373 Y37.9500 E36.167956
G1 X52.8059 Y37.0081 E36.377268
G1 X54.4373 Y36.0662 E36.586581
G10
G0 X56.3285 Y36.8581
G11
G1 X54.6971 Y35.9162 E36.795894
G1 X56.3285 Y34.9743 E37.005206
G1 X56.3285 Y36.8581 E37.214519
G10
G0 X54.6971 Y38.1000
G11
G1 X56.3285 Y37.1581 E37.423831
G1 X56.3285 Y39.0419 E37.633144
G1 X54.6971 Y38.1000 E37.842457
G10
G0 X58.4796 Y40.2838
G11
G1 X60.1110 Y39.3419 E38.051769
G1 X60.1110 Y41.2257 E38.261082
G1 X58.4796 Y40.2838 E38.470395
G10
G0 X58.2198 Y38.2500
G11
G1 X58.2198 Y40.1338 E38.679707
G1 X56.5883 Y39.1919 E38.889020
G1 X58.2198 Y38.2500 E39.098332
G10
G0 X60.1110 Y39.0419
G11
G1 X58.4796 Y38.1000 E39.307645
G1 X60.1110 Y37.1581 E39.516958
G1 X60.1110 Y39.0419 E39.726270
G10
G0 X60.1110 Y45.7434
G11
G1 X56.4584 Y47.8522 E40.194895
G1 X56.4584 Y43.6346 E40.663521
G1 X60.1110 Y45.7434 E41.132146
G10
G0 X58.4796 Y49.0191
G11
G1 X60.1110 Y48.0772 E41.341458
G1 X60.1110 Y49.9610 E41.550771
G1 X58.4796 Y49.0191 E41.760084
G10
G0 X58.2198 Y46.9853
G11
G1 X58.2198 Y48.8691 E41.969396
G1 X56.5883 Y47.9272 E42.178709
G1 X58.2198 Y46.9853 E42.388022
G10
G0 X60.1110 Y47.7772
G11
G1 X58.4796 Y46.8353 E42.597334
G1 X60.1110 Y45.8934 E42.806647
G1 X60.1110 Y47.7772 E43.015959
G10
G0 X60.1110 Y43.4096
G11
G1 X58.4796 Y42.4677 E43.225272
G1 X60.1110 Y41.5257 E43.434585
G1 X60.1110 Y43.4096 E43.643897
G10
G0 X58.4796 Y44.6515
G11
G1 X60.1110 Y43.7096 E43.853210
G1 X60.1110 Y45.5934 E44.062522
G1 X58.4796 Y44.6515 E44.271835
G10
G0 X58.2198 Y42.6177
G11
G1 X58.2198 Y44.5015 E44.481148
G1 X56.5883 Y43.5596 E44.690460
G1 X58.2198 Y42.6177 E44.899773
G10
G0 X54.4373 Y44.8015
G11
G1 X54.4373 Y46.6853 E45.109085
G1 X52.8059 Y45.7434 E45.318398
G1 X54.4373 Y44.8015 E45.527711
G10
G0 X56.3285 Y45.5934
G11
G1 X54.6971 Y44.6515 E45.737023
G1 X56.3285 Y43.7096 E45.946336
G1 X56.3285 Y45.5934 E46.155649
G10
G0 X54.6971 Y46.8353
G11
G1 X56.3285 Y45.8934 E46.364961
G1 X56.3285 Y47.7772 E46.574274
G1 X54.6971 Y46.8353 E46.783586
G10
G0 X48.8935 Y43.4846
G11
G1 X48.8935 Y39.2669 E47.252212
G1 X52.5460 Y41.3757 E47.720837
G1 X48.8935 Y43.4846 E48.189462
G10
G0 X46.8723 Y40.4338
G11
G1 X46.8723 Y42.3177 E48.398775
G1 X45.2409 Y41.3757 E48.608087
G1 X46.8723 Y40.4338 E48.817400
G10
G0 X48.7636 Y41.2257
G11
G1 X47.1321 Y40.2838 E49.026713
G1 X48.7636 Y39.3419 E49.236025
G1 X48.7636 Y41.2257 E49.445338
G10
G0 X47.1321 Y42.4677
G11
G1 X48.7636 Y41.5257 E49.654650
G1 X48.7636 Y43.4096 E49.863963
G1 X47.1321 Y42.4677 E50.073276
G10
G0 X50.9146 Y44.6515
G11
G1 X52.5460 Y43.7096 E50.282588
G1 X52.5460 Y45.5934 E50.491901
G1 X50.9146 Y44.6515 E50.701213
G10
G0 X50.6548 Y42.6177
G11
G1 X50.6548 Y44.5015 E50.910526
G1 X49.0234 Y43.5596 E51.119839
G1 X50.6548 Y42.6177 E51.329151
G10
G0 X52.5460 Y43.4096
G11
G1 X50.9146 Y42.4677 E51.538464
G1 X52.5460 Y41.5257 E51.747776
G1 X52.5460 Y43.4096 E51.957089
G10
G0 X52.5460 Y39.0419
G11
G1 X50.9146 Y38.1000 E52.166402
G1 X52.5460 Y37.1581 E52.375714
G1 X52.5460 Y39.0419 E52.585027
G10
G0 X50.9146 Y40.2838
G11
G1 X52.5460 Y39.3419 E52.794340
G1 X52.5460 Y41.2257 E53.003652
G1 X50.9146 Y40.2838 E53.212965
G10
G0 X50.6548 Y38.2500
G11
G1 X50.6548 Y40.1338 E53.422277
G1 X49.0234 Y39.1919 E53.631590
G1 X50.6548 Y38.2500 E53.840903
G10
G0 X37.5460 Y45.8184
G11
G1 X37.5460 Y54.4036 E54.794820
G1 X44.9811 Y50.1110 E55.748737
G1 X37.5460 Y45.8184 E56.702654
G10
G0 X33.7636 Y52.2198
G11
G1 X33.7636 Y48.0022 E57.171279
G1 X37.4161 Y50.1110 E57.639904
G1 X33.7636 Y52.2198 E58.108530
G10
G0 X31.7424 Y49.1691
G11
G1 X31.7424 Y51.0529 E58.317842
G1 X30.1110 Y50.1110 E58.527155
G1 X31.7424 Y49.1691 E58.736467
G10
G0 X33.6337 Y49.9610
G11
G1 X32.0022 Y49.0191 E58.945780
G1 X33.6337 Y48.0772 E59.155093
G1 X33.6337 Y49.9610 E59.364405
G10
G0 X32.0022 Y51.2029
G11
G1 X33.6337 Y50.2610 E59.573718
G1 X33.6337 Y52.1448 E59.783031
G1 X32.0022 Y51.2029 E59.992343
G10
G0 X35.7847 Y53.3867
G11
G1 X37.4161 Y52.4448 E60.201656
G1 X37.4161 Y54.3286 E60.410968
G1 X35.7847 Y53.3867 E60.620281
G10
G0 X35.5249 Y51.3529
G11
G1 X35.5249 Y53.2367 E60.829594
G1 X33.8935 Y52.2948 E61.038906
G1 X35.5249 Y51.3529 E61.248219
G10
G0 X37.4161 Y52.1448
G11
G1 X35.7847 Y51.2029 E61.457531
G1 X37.4161 Y50.2610 E61.666844
G1 X37.4161 Y52.1448 E61.876157
G10
G0 X37.4161 Y47.7772
G11
G1 X35.7847 Y46.8353 E62.085469
G1 X37.4161 Y45.8934 E62.294782
G1 X37.4161 Y47.7772 E62.504094
G10
G0 X35.7847 Y49.0191
G11
G1 X37.4161 Y48.0772 E62.713407
G1 X37.4161 Y49.9610 E62.922720
G1 X35.7847 Y49.0191 E63.132032
G10
G0 X35.5249 Y46.9853
G11
G1 X35.5249 Y48.8691 E63.341345
G1 X33.8935 Y47.9272 E63.550658
G1 X35.5249 Y46.9853 E63.759970
G10
G0 X41.3285 Y43.6346
G11
G1 X44.9811 Y45.7434 E64.228595
G1 X41.3285 Y47.8522 E64.697221
G1 X41.3285 Y43.6346 E65.165846
G10
G0 X44.9811 Y43.4096
G11
G1 X43.3497 Y42.4677 E65.375158
G1 X44.9811 Y41.5257 E65.584471
G1 X44.9811 Y43.4096 E65.793784
G10
G0 X43.3497 Y44.6515
G11
G1 X44.9811 Y43.7096 E66.003096
G1 X44.9811 Y45.5934 E66.212409
G1 X43.3497 Y44.6515 E66.421721
G10
G0 X43.0899 Y42.6177
G11
G1 X43.0899 Y44.5015 E66.631034
G1 X41.4584 Y43.5596 E66.840347
G1 X43.0899 Y42.6177 E67.049659
G10
G0 X39.3074 Y44.8015
G11
G1 X39.3074 Y46.6853 E67.258972
G1 X37.6760 Y45.7434 E67.468285
G1 X39.3074 Y44.8015 E67.677597
G10
G0 X41.1986 Y45.5934
G11
G1 X39.5672 Y44.6515 E67.886910
G1 X41.1986 Y43.7096 E68.096222
G1 X41.1986 Y45.5934 E68.305535
G10
G0 X39.5672 Y46.8353
G11
G1 X41.1986 Y45.8934 E68.514848
G1 X41.1986 Y47.7772 E68.724160
G1 X39.5672 Y46.8353 E68.933473
G10
G0 X43.3497 Y49.0191
G11
G1 X44.9811 Y48.0772 E69.142785
G1 X44.9811 Y49.9610 E69.352098
G1 X43.3497 Y49.0191 E69.561411
G10
G0 X43.0899 Y46.9853
G11
G1 X43.0899 Y48.8691 E69.770723
G1 X41.4584 Y47.9272 E69.980036
G1 X43.0899 Y46.9853 E70.189349
G10
G0 X44.9811 Y47.7772
G11
G1 X43.3497 Y46.8353 E70.398661
G1 X44.9811 Y45.8934 E70.607974
G1 X44.9811 Y47.7772 E70.817286
G10
G0 X44.9811 Y54.4786
G11
G1 X41.3285 Y56.5874 E71.285912
G1 X41.3285 Y52.3698 E71.754537
G1 X44.9811 Y54.4786 E72.223162
G10
G0 X43.3497 Y57.7543
G11
G1 X44.9811 Y56.8124 E72.432475
G1 X44.9811 Y58.6963 E72.641787
G1 X43.3497 Y57.7543 E72.851100
G10
G0 X43.0899 Y55.7205
G11
G1 X43.0899 Y57.6043 E73.060412
G1 X41.4584 Y56.6624 E73.269725
G1 X43.0899 Y55.7205 E73.479038
G10
G0 X44.9811 Y56.5124
G11
G1 X43.3497 Y55.5705 E73.688350
G1 X44.9811 Y54.6286 E73.897663
G1 X44.9811 Y56.5124 E74.106976
G10
G0 X44.9811 Y52.1448
G11
G1 X43.3497 Y51.2029 E74.316288
G1 X44.9811 Y50.2610 E74.525601
G1 X44.9811 Y52.1448 E74.734913
G10
G0 X43.3497 Y53.3867
G11
G1 X44.9811 Y52.4448 E74.944226
G1 X44.9811 Y54.3286 E75.153539
G1 X43.3497 Y53.3867 E75.362851
G10
G0 X43.0899 Y51.3529
G11
G1 X43.0899 Y53.2367 E75.572164
G1 X41.4584 Y52.2948 E75.781476
G1 X43.0899 Y51.3529 E75.990789
G10
G0 X39.3074 Y53.5367
G11
G1 X39.3074 Y55.4205 E76.200102
G1 X37.6760 Y54.4786 E76.409414
G1 X39.3074 Y53.5367 E76.618727
G10
G0 X41.1986 Y54.3286
G11
G1 X39.5672 Y53.3867 E76.828039
G1 X41.1986 Y52.4448 E77.037352
G1 X41.1986 Y54.3286 E77.246665
G10
G0 X39.5672 Y55.5705
G11
G1 X41.1986 Y54.6286 E77.455977
G1 X41.1986 Y56.5124 E77.665290
G1 X39.5672 Y55.5705 E77.874603
G0 Z0.4000
G10
G0 X39.6422 Y55.5705
G11
G1 X41.1611 Y54.6936 E78.069481
G1 X41.1611 Y56.4475 E78.264360
G1 X39.6422 Y55.5705 E78.459239
G10
G0 X39.6422 Y53.3867
G11
G1 X41.1611 Y52.5098 E78.654118
G1 X41.1611 Y54.2637 E78.848997
G1 X39.6422 Y53.3867 E79.043876
G10
G0 X37.7510 Y54.4786
G11
G1 X39.2699 Y53.6017 E79.238755
G1 X39.2699 Y55.3556 E79.433633
G1 X37.7510 Y54.4786 E79.628512
G10
G0 X41.5334 Y52.2948
G11
G1 X43.0524 Y51.4179 E79.823391
G1 X43.0524 Y53.1718 E80.018270
G1 X41.5334 Y52.2948 E80.213149
G10
G0 X43.4247 Y53.3867
G11
G1 X44.9436 Y52.5098 E80.408028
G1 X44.9436 Y54.2637 E80.602907
G1 X43.4247 Y53.3867 E80.797785
G10
G0 X43.4247 Y51.2029
G11
G1 X44.9436 Y50.3260 E80.992664
G1 X44.9436 Y52.0799 E81.187543
G1 X43.4247 Y51.2029 E81.382422
G10
G0 X43.4247 Y55.5705
G11
G1 X44.9436 Y54.6936 E81.577301
G1 X44.9436 Y56.4475 E81.772180
G1 X43.4247 Y55.5705 E81.967059
G10
G0 X41.5334 Y56.6624
G11
G1 X43.0524 Y55.7855 E82.161937
G1 X43.0524 Y57.5394 E82.356816
G1 X41.5334 Y56.6624 E82.551695
G10
G0 X43.4247 Y57.7543
G11
G1 X44.9436 Y56.8774 E82.746574
G1 X44.9436 Y58.6313 E82.941453
G1 X43.4247 Y57.7543 E83.136332
G10
G0 X44.9061 Y54.4786
G11
G1 X41.3660 Y56.5225 E83.590523
G1 X41.3660 Y52.4348 E84.044715
G1 X44.9061 Y54.4786 E84.498906
G10
G0 X43.4247 Y46.8353
G11
G1 X44.9436 Y45.9583 E84.693785
G1 X44.9436 Y47.7122 E84.888664
G1 X43.4247 Y46.8353 E85.083543
G10
G0 X41.5334 Y47.9272
G11
G1 X43.0524 Y47.0502 E85.278421
G1 X43.0524 Y48.8041 E85.473300
G1 X41.5334 Y47.9272 E85.668179
G10
G0 X43.4247 Y49.0191
G11
G1 X44.9436 Y48.1421 E85.863058
G1 X44.9436 Y49.8960 E86.057937
G1 X43.4247 Y49.0191 E86.252816
G10
G0 X39.6422 Y46.8353
G11
G1 X41.1611 Y45.9583 E86.447695
G1 X41.1611 Y47.7122 E86.642573
G1 X39.6422 Y46.8353 E86.837452
G10
G0 X39.6422 Y44.6515
G11
G1 X41.1611 Y43.7745 E87.032331
G1 X41.1611 Y45.5284 E87.227210
G1 X39.6422 Y44.6515 E87.422089
G10
G0 X37.7510 Y45.7434
G11
G1 X39.2699 Y44.8664 E87.616968
G1 X39.2699 Y46.6203 E87.811847
G1 X37.7510 Y45.7434 E88.006725
G10
G0 X41.5334 Y43.5596
G11
G1 X43.0524 Y42.6826 E88.201604
G1 X43.0524 Y44.4365 E88.396483
G1 X41.5334 Y43.5596 E88.591362
G10
G0 X43.4247 Y44.6515
G11
G1 X44.9436 Y43.7745 E88.786241
G1 X44.9436 Y45.5284 E88.981120
G1 X43.4247 Y44.6515 E89.175999
G10
G0 X43.4247 Y42.4677
G11
G1 X44.9436 Y41.5907 E89.370877
G1 X44.9436 Y43.3446 E89.565756
G1 X43.4247 Y42.4677 E89.760635
G10
G0 X44.9061 Y45.7434
G11
G1 X41.3660 Y47.7872 E90.214827
G1 X41.3660 Y43.6995 E90.669018
G1 X44.9061 Y45.7434 E91.123210
G10
G0 X33.9685 Y47.9272
G11
G1 X35.4874 Y47.0502 E91.318088
G1 X35.4874 Y48.8041 E91.512967
G1 X33.9685 Y47.9272 E91.707846
G10
G0 X35.8597 Y49.0191
G11
G1 X37.3786 Y48.1421 E91.902725
G1 X37.3786 Y49.8960 E92.097604
G1 X35.8597 Y49.0191 E92.292483
G10
G0 X35.8597 Y46.8353
G11
G1 X37.3786 Y45.9583 E92.487362
G1 X37.3786 Y47.7122 E92.682240
G1 X35.8597 Y46.8353 E92.877119
G10
G0 X35.8597 Y51.2029
G11
G1 X37.3786 Y50.3260 E93.071998
G1 X37.3786 Y52.0799 E93.266877
G1 X35.8597 Y51.2029 E93.461756
G10
G0 X33.9685 Y52.2948
G11
G1 X35.4874 Y51.4179 E93.656635
G1 X35.4874 Y53.1718 E93.851514
G1 X33.9685 Y52.2948 E94.046392
G10
G0 X35.8597 Y53.3867
G11
G1 X37.3786 Y52.5098 E94.241271
G1 X37.3786 Y54.2637 E94.436150
G1 X35.8597 Y53.3867 E94.631029
G10
G0 X32.0772 Y51.2029
G11
G1 X33.5962 Y50.3260 E94.825908
G1 X33.5962 Y52.0799 E95.020787
G1 X32.0772 Y51.2029 E95.215666
G10
G0 X32.0772 Y49.0191
G11
G1 X33.5962 Y48.1421 E95.410544
G1 X33.5962 Y49.8960 E95.605423
G1 X32.0772 Y49.0191 E95.800302
G10
G0 X30.1860 Y50.1110
G11
G1 X31.7049 Y49.2340 E95.995181
G1 X31.7049 Y50.9880 E96.190060
G1 X30.1860 Y50.1110 E96.384939
G10
G0 X37.3411 Y50.1110
G11
G1 X33.8011 Y52.1549 E96.839130
G1 X33.8011 Y48.0671 E97.293322
G1 X37.3411 Y50.1110 E97.747513
G10
G0 X44.9061 Y50.1110
G11
G1 X37.5835 Y54.3387 E98.686996
G1 X37.5835 Y45.8833 E99.626480
G1 X44.9061 Y50.1110 E100.565963
G10
G0 X49.0984 Y39.1919
G11
G1 X50.6173 Y38.3150 E100.760842
G1 X50.6173 Y40.0689 E100.955721
G1 X49.0984 Y39.1919 E101.150600
G10
G0 X50.9896 Y40.2838
G11
G1 X52.5085 Y39.4069 E101.345479
G1 X52.5085 Y41.1608 E101.540357
