;FLAVOR:UltiGCode
;TIME:531
;MATERIAL:503
;MATERIAL2:0

;Layer count: 8
;LAYER:0
M107
G0 F9000.000000
G1 F1200.000000
G0 X20.0000 Y20.0000
G1 X20.0000 Y30.0000 E1.200000
G1 X20.1000 Y30.0000 E1.212000
G1 X20.1000 Y20.0000 E2.412000
G1 X20.2000 Y20.0000 E2.424000
G1 X20.2000 Y30.0000 E3.624000
G1 X20.3000 Y30.0000 E3.636000
G1 X20.3000 Y20.0000 E4.836000
G1 X20.4000 Y20.0000 E4.848000
G1 X20.4000 Y30.0000 E6.048000
G1 X20.5000 Y30.0000 E6.060000
G1 X20.5000 Y20.0000 E7.260000
G1 X20.6000 Y20.0000 E7.272000
G1 X20.6000 Y30.0000 E8.472000
G1 X20.7000 Y30.0000 E8.484000
G1 X20.7000 Y20.0000 E9.684000
G1 X20.8000 Y20.0000 E9.696000
G1 X20.8000 Y30.0000 E10.896000
G1 X20.9000 Y30.0000 E10.908000
G1 X20.9000 Y20.0000 E12.108000
G1 X21.0000 Y20.0000 E12.120000
G1 X21.0000 Y30.0000 E13.320000
G1 X21.1000 Y30.0000 E13.332000
G1 X21.1000 Y20.0000 E14.532000
G1 X21.2000 Y20.0000 E14.544000
G1 X21.2000 Y30.0000 E15.744000
G1 X21.3000 Y30.0000 E15.756000
G1 X21.3000 Y20.0000 E16.956000
G1 X21.4000 Y20.0000 E16.968000
G1 X21.4000 Y30.0000 E18.168000
G1 X21.5000 Y30.0000 E18.180000
G1 X21.5000 Y20.0000 E19.380000
G1 X21.6000 Y20.0000 E19.392000
G1 X21.6000 Y30.0000 E20.592000
G1 X21.7000 Y30.0000 E20.604000
G1 X21.7000 Y20.0000 E21.804000
G1 X21.8000 Y20.0000 E21.816000
G1 X21.8000 Y30.0000 E23.016000
G1 X21.9000 Y30.0000 E23.028000
G1 X21.9000 Y20.0000 E24.228000
G1 X22.0000 Y20.0000 E24.240000
G1 X22.0000 Y30.0000 E25.440000
G1 X22.1000 Y30.0000 E25.452000
G1 X22.1000 Y20.0000 E26.652000
G1 X22.2000 Y20.0000 E26.664000
G1 X22.2000 Y30.0000 E27.864000
G1 X22.3000 Y30.0000 E27.876000
G1 X22.3000 Y20.0000 E29.076000
G1 X22.4000 Y20.0000 E29.088000
G1 X22.4000 Y30.0000 E30.288000
G1 X22.5000 Y30.0000 E30.300000
G1 X22.5000 Y20.0000 E31.500000
G1 X22.6000 Y20.0000 E31.512000
G1 X22.6000 Y30.0000 E32.712000
G1 X22.7000 Y30.0000 E32.724000
G1 X22.7000 Y20.0000 E33.924000
G1 X22.8000 Y20.0000 E33.936000
G1 X22.8000 Y30.0000 E35.136000
G1 X22.9000 Y30.0000 E35.148000
G1 X22.9000 Y20.0000 E36.348000
G1 X23.0000 Y20.0000 E36.360000
G1 X23.0000 Y30.0000 E37.560000
G1 X23.1000 Y30.0000 E37.572000
G1 X23.1000 Y20.0000 E38.772000
G1 X23.2000 Y20.0000 E38.784000
G1 X23.2000 Y30.0000 E39.984000
G1 X23.3000 Y30.0000 E39.996000
G1 X23.3000 Y20.0000 E41.196000
G1 X23.4000 Y20.0000 E41.208000
G1 X23.4000 Y30.0000 E42.408000
G1 X23.5000 Y30.0000 E42.420000
G1 X23.5000 Y20.0000 E43.620000
G1 X23.6000 Y20.0000 E43.632000
G1 X23.6000 Y30.0000 E44.832000
G1 X23.7000 Y30.0000 E44.844000
G1 X23.7000 Y20.0000 E46.044000
G1 X23.8000 Y20.0000 E46.056000
G1 X23.8000 Y30.0000 E47.256000
G1 X23.9000 Y30.0000 E47.268000
G1 X23.9000 Y20.0000 E48.468000
G1 X24.0000 Y20.0000 E48.480000
G1 X24.0000 Y30.0000 E49.680000
G1 X24.1000 Y30.0000 E49.692000
G1 X24.1000 Y20.0000 E50.892000
G1 X24.2000 Y20.0000 E50.904000
G1 X24.2000 Y30.0000 E52.104000
G1 X24.3000 Y30.0000 E52.116000
G1 X24.3000 Y20.0000 E53.316000
G1 X24.4000 Y20.0000 E53.328000
G1 X24.4000 Y30.0000 E54.528000
G1 X24.5000 Y30.0000 E54.540000
G1 X24.5000 Y20.0000 E55.740000
G1 X24.6000 Y20.0000 E55.752000
G1 X24.6000 Y30.0000 E56.952000
G1 X24.7000 Y30.0000 E56.964000
G1 X24.7000 Y20.0000 E58.164000
G1 X24.8000 Y20.0000 E58.176000
G1 X24.8000 Y30.0000 E59.376000
G1 X24.9000 Y30.0000 E59.388000
G1 X24.9000 Y20.0000 E60.588000
G1 X25.0000 Y20.0000 E60.600000
G1 X25.0000 Y30.0000 E61.800000
G1 X25.1000 Y30.0000 E61.812000
G1 X25.1000 Y20.0000 E63.012000
G1 X25.2000 Y20.0000 E63.024000
G1 X25.2000 Y30.0000 E64.224000
G1 X25.3000 Y30.0000 E64.236000
G1 X25.3000 Y20.0000 E65.436000
G1 X25.4000 Y20.0000 E65.448000
G1 X25.4000 Y30.0000 E66.648000
G1 X25.5000 Y30.0000 E66.660000
G1 X25.5000 Y20.0000 E67.860000
G1 X25.6000 Y20.0000 E67.872000
G1 X25.6000 Y30.0000 E69.072000
G1 X25.7000 Y30.0000 E69.084000
G1 X25.7000 Y20.0000 E70.284000
G1 X25.8000 Y20.0000 E70.296000
G1 X25.8000 Y30.0000 E71.496000
G1 X25.9000 Y30.0000 E71.508000
G1 X25.9000 Y20.0000 E72.708000
G1 X26.0000 Y20.0000 E72.720000
G1 X26.0000 Y30.0000 E73.920000
G1 X26.1000 Y30.0000 E73.932000
G1 X26.1000 Y20.0000 E75.132000
G1 X26.2000 Y20.0000 E75.144000
G1 X26.2000 Y30.0000 E76.344000
G1 X26.3000 Y30.0000 E76.356000
G1 X26.3000 Y20.0000 E77.556000
G1 X26.4000 Y20.0000 E77.568000
G1 X26.4000 Y30.0000 E78.768000
G1 X26.5000 Y30.0000 E78.780000
G1 X26.5000 Y20.0000 E79.980000
G1 X26.6000 Y20.0000 E79.992000
G1 X26.6000 Y30.0000 E81.192000
G1 X26.7000 Y30.0000 E81.204000
G1 X26.7000 Y20.0000 E82.404000
G1 X26.8000 Y20.0000 E82.416000
G1 X26.8000 Y30.0000 E83.616000
G1 X26.9000 Y30.0000 E83.628000
G1 X26.9000 Y20.0000 E84.828000
G1 X27.0000 Y20.0000 E84.840000
G1 X27.0000 Y30.0000 E86.040000
G1 X27.1000 Y30.0000 E86.052000
G1 X27.1000 Y20.0000 E87.252000
G1 X27.2000 Y20.0000 E87.264000
G1 X27.2000 Y30.0000 E88.464000
G1 X27.3000 Y30.0000 E88.476000
G1 X27.3000 Y20.0000 E89.676000
G1 X27.4000 Y20.0000 E89.688000
G1 X27.4000 Y30.0000 E90.888000
G1 X27.5000 Y30.0000 E90.900000
G1 X27.5000 Y20.0000 E92.100000
G1 X27.6000 Y20.0000 E92.112000
G1 X27.6000 Y30.0000 E93.312000
G1 X27.7000 Y30.0000 E93.324000
G1 X27.7000 Y20.0000 E94.524000
G1 X27.8000 Y20.0000 E94.536000
G1 X27.8000 Y30.0000 E95.736000
G1 X27.9000 Y30.0000 E95.748000
G1 X27.9000 Y20.0000 E96.948000
G1 X28.0000 Y20.0000 E96.960000
G1 X28.0000 Y30.0000 E98.160000
G1 X28.1000 Y30.0000 E98.172000
G1 X28.1000 Y20.0000 E99.372000
G1 X28.2000 Y20.0000 E99.384000
G1 X28.2000 Y30.0000 E100.584000
G1 X28.3000 Y30.0000 E100.596000
G1 X28.3000 Y20.0000 E101.796000
G1 X28.4000 Y20.0000 E101.808000
G1 X28.4000 Y30.0000 E103.008000
G1 X28.5000 Y30.0000 E103.020000
G1 X28.5000 Y20.0000 E104.220000
G1 X28.6000 Y20.0000 E104.232000
G1 X28.6000 Y30.0000 E105.432000
G1 X28.7000 Y30.0000 E105.444000
G1 X28.7000 Y20.0000 E106.644000
G1 X28.8000 Y20.0000 E106.656000
G1 X28.8000 Y30.0000 E107.856000
G1 X28.9000 Y30.0000 E107.868000
G1 X28.9000 Y20.0000 E109.068000
G1 X29.0000 Y20.0000 E109.080000
G1 X29.0000 Y30.0000 E110.280000
G1 X29.1000 Y30.0000 E110.292000
G1 X29.1000 Y20.0000 E111.492000
G1 X29.2000 Y20.0000 E111.504000
G1 X29.2000 Y30.0000 E112.704000
G1 X29.3000 Y30.0000 E112.716000
G1 X29.3000 Y20.0000 E113.916000
G1 X29.4000 Y20.0000 E113.928000
G1 X29.4000 Y30.0000 E115.128000
G1 X29.5000 Y30.0000 E115.140000
G1 X29.5000 Y20.0000 E116.340000
G1 X29.6000 Y20.0000 E116.352000
G1 X29.6000 Y30.0000 E117.552000
G1 X29.7000 Y30.0000 E117.564000
G1 X29.7000 Y20.0000 E118.764000
G1 X29.8000 Y20.0000 E118.776000
G1 X29.8000 Y30.0000 E119.976000
G1 X29.9000 Y30.0000 E119.988000
G1 X29.9000 Y20.0000 E121.188000
G1 X30.0000 Y20.0000 E121.200000
G1 X30.0000 Y30.0000 E122.400000
G0 Z0.4000
G0 X20.0000 Y20.0000
G1 X20.0000 Y30.0000 E123.600000
G1 X30.0000 Y30.0000 E124.800000
G1 X30.0000 Y20.0000 E126.000000
G1 X20.0000 Y20.0000 E127.200000
G0 Z0.5000
G1 X20.0000 Y30.0000 E128.400000
G1 X30.0000 Y30.0000 E129.600000
G1 X30.0000 Y20.0000 E130.800000
G1 X20.0000 Y20.0000 E132.000000
G0 Z0.6000
G1 X20.0000 Y30.0000 E133.200000
G1 X30.0000 Y30.0000 E134.400000
G1 X30.0000 Y20.0000 E135.600000
G1 X20.0000 Y20.0000 E136.800000
G0 Z0.7000
G1 X20.0000 Y30.0000 E138.000000
G1 X30.0000 Y30.0000 E139.200000
G1 X30.0000 Y20.0000 E140.400000
G1 X20.0000 Y20.0000 E141.600000
G0 Z0.8000
G1 X20.0000 Y30.0000 E142.800000
G1 X30.0000 Y30.0000 E144.000000
G1 X30.0000 Y20.0000 E145.200000
G1 X20.0000 Y20.0000 E146.400000
G0 Z0.9000
G1 X20.0000 Y30.0000 E147.600000
G1 X30.0000 Y30.0000 E148.800000
G1 X30.0000 Y20.0000 E150.000000
G1 X20.0000 Y20.0000 E151.200000
G0 Z1.0000
G1 X20.0000 Y30.0000 E152.400000
G1 X30.0000 Y30.0000 E153.600000
G1 X30.0000 Y20.0000 E154.800000
G1 X20.0000 Y20.0000 E156.000000
G0 Z1.1000
G1 X20.0000 Y30.0000 E157.200000
G1 X30.0000 Y30.0000 E158.400000
G1 X30.0000 Y20.0000 E159.600000
G1 X20.0000 Y20.0000 E160.800000
G0 Z1.2000
G1 X20.0000 Y30.0000 E162.000000
G1 X30.0000 Y30.0000 E163.200000
G1 X30.0000 Y20.0000 E164.400000
G1 X20.0000 Y20.0000 E165.600000
G0 Z1.3000
G1 X20.0000 Y30.0000 E166.800000
G1 X30.0000 Y30.0000 E168.000000
G1 X30.0000 Y20.0000 E169.200000
G1 X20.0000 Y20.0000 E170.400000
G0 Z1.4000
G1 X20.0000 Y30.0000 E171.600000
G1 X30.0000 Y30.0000 E172.800000
G1 X30.0000 Y20.0000 E174.000000
G1 X20.0000 Y20.0000 E175.200000
G0 Z1.5000
G1 X20.0000 Y30.0000 E176.400000
G1 X30.0000 Y30.0000 E177.600000
G1 X30.0000 Y20.0000 E178.800000
G1 X20.0000 Y20.0000 E180.000000
G0 Z1.6000
G1 X20.0000 Y30.0000 E181.200000
G1 X30.0000 Y30.0000 E182.400000
G1 X30.0000 Y20.0000 E183.600000
G1 X20.0000 Y20.0000 E184.800000
G0 Z1.7000
G1 X20.0000 Y30.0000 E186.000000
G1 X30.0000 Y30.0000 E187.200000
G1 X30.0000 Y20.0000 E188.400000
G1 X20.0000 Y20.0000 E189.600000
G0 Z1.8000
G1 X20.0000 Y30.0000 E190.800000
G1 X30.0000 Y30.0000 E192.000000
G1 X30.0000 Y20.0000 E193.200000
G1 X20.0000 Y20.0000 E194.400000
G0 Z1.9000
G1 X20.0000 Y30.0000 E195.600000
G1 X30.0000 Y30.0000 E196.800000
G1 X30.0000 Y20.0000 E198.000000
G1 X20.0000 Y20.0000 E199.200000
G0 Z2.0000
G1 X20.0000 Y30.0000 E200.400000
G1 X30.0000 Y30.0000 E201.600000
G1 X30.0000 Y20.0000 E202.800000
G1 X20.0000 Y20.0000 E204.000000
G0 Z2.1000
G1 X20.0000 Y30.0000 E205.200000
G1 X30.0000 Y30.0000 E206.400000
G1 X30.0000 Y20.0000 E207.600000
G1 X20.0000 Y20.0000 E208.800000
G0 Z2.2000
G1 X20.0000 Y30.0000 E210.000000
G1 X30.0000 Y30.0000 E211.200000
G1 X30.0000 Y20.0000 E212.400000
G1 X20.0000 Y20.0000 E213.600000
G0 Z2.3000
G1 X20.0000 Y30.0000 E214.800000
G1 X30.0000 Y30.0000 E216.000000
G1 X30.0000 Y20.0000 E217.200000
G1 X20.0000 Y20.0000 E218.400000
G0 Z2.4000
G1 X20.0000 Y30.0000 E219.600000
G1 X30.0000 Y30.0000 E220.800000
G1 X30.0000 Y20.0000 E222.000000
G1 X20.0000 Y20.0000 E223.200000
G0 Z2.5000
G1 X20.0000 Y30.0000 E224.400000
G1 X30.0000 Y30.0000 E225.600000
G1 X30.0000 Y20.0000 E226.800000
G1 X20.0000 Y20.0000 E228.000000
G0 Z2.6000
G1 X20.0000 Y30.0000 E229.200000
G1 X30.0000 Y30.0000 E230.400000
G1 X30.0000 Y20.0000 E231.600000
G1 X20.0000 Y20.0000 E232.800000
G0 Z2.7000
G1 X20.0000 Y30.0000 E234.000000
G1 X30.0000 Y30.0000 E235.200000
G1 X30.0000 Y20.0000 E236.400000
G1 X20.0000 Y20.0000 E237.600000
G0 Z2.8000
G1 X20.0000 Y30.0000 E238.800000
G1 X30.0000 Y30.0000 E240.000000
G1 X30.0000 Y20.0000 E241.200000
G1 X20.0000 Y20.0000 E242.400000
G0 Z2.9000
G1 X20.0000 Y30.0000 E243.600000
G1 X30.0000 Y30.0000 E244.800000
G1 X30.0000 Y20.0000 E246.000000
G1 X20.0000 Y20.0000 E247.200000
G0 Z3.0000
G1 X20.0000 Y30.0000 E248.400000
G1 X30.0000 Y30.0000 E249.600000
G1 X30.0000 Y20.0000 E250.800000
G1 X20.0000 Y20.0000 E252.000000
G0 Z3.1000
G1 X20.0000 Y30.0000 E253.200000
G1 X30.0000 Y30.0000 E254.400000
G1 X30.0000 Y20.0000 E255.600000
G1 X20.0000 Y20.0000 E256.800000
G0 Z3.2000
G1 X20.0000 Y30.0000 E258.000000
G1 X30.0000 Y30.0000 E259.200000
G1 X30.0000 Y20.0000 E260.400000
G1 X20.0000 Y20.0000 E261.600000
G0 Z3.3000
G1 X20.0000 Y30.0000 E262.800000
G1 X30.0000 Y30.0000 E264.000000
G1 X30.0000 Y20.0000 E265.200000
G1 X20.0000 Y20.0000 E266.400000
G0 Z3.4000
G1 X20.0000 Y30.0000 E267.600000
G1 X30.0000 Y30.0000 E268.800000
G1 X30.0000 Y20.0000 E270.000000
G1 X20.0000 Y20.0000 E271.200000
G0 Z3.5000
G1 X20.0000 Y30.0000 E272.400000
G1 X30.0000 Y30.0000 E273.600000
G1 X30.0000 Y20.0000 E274.800000
G1 X20.0000 Y20.0000 E276.000000
G0 Z3.6000
G1 X20.0000 Y30.0000 E277.200000
G1 X30.0000 Y30.0000 E278.400000
G1 X30.0000 Y20.0000 E279.600000
G1 X20.0000 Y20.0000 E280.800000
G0 Z3.7000
G1 X20.0000 Y30.0000 E282.000000
G1 X30.0000 Y30.0000 E283.200000
G1 X30.0000 Y20.0000 E284.400000
G1 X20.0000 Y20.0000 E285.600000
G0 Z3.8000
G1 X20.0000 Y30.0000 E286.800000
G1 X30.0000 Y30.0000 E288.000000
G1 X30.0000 Y20.0000 E289.200000
G1 X20.0000 Y20.0000 E290.400000
G0 Z3.9000
G1 X20.0000 Y30.0000 E291.600000
G1 X30.0000 Y30.0000 E292.800000
G1 X30.0000 Y20.0000 E294.000000
G1 X20.0000 Y20.0000 E295.200000
G0 Z4.0000
G1 X20.0000 Y30.0000 E296.400000
G1 X30.0000 Y30.0000 E297.600000
G1 X30.0000 Y20.0000 E298.800000
G1 X20.0000 Y20.0000 E300.000000
G0 Z4.1000
G1 X20.0000 Y30.0000 E301.200000
G1 X30.0000 Y30.0000 E302.400000
G1 X30.0000 Y20.0000 E303.600000
G1 X20.0000 Y20.0000 E304.800000
G0 Z4.2000
G1 X20.0000 Y30.0000 E306.000000
G1 X30.0000 Y30.0000 E307.200000
G1 X30.0000 Y20.0000 E308.400000
G1 X20.0000 Y20.0000 E309.600000
G0 Z4.3000
G1 X20.0000 Y30.0000 E310.800000
G1 X30.0000 Y30.0000 E312.000000
G1 X30.0000 Y20.0000 E313.200000
G1 X20.0000 Y20.0000 E314.400000
G0 Z4.4000
G1 X20.0000 Y30.0000 E315.600000
G1 X30.0000 Y30.0000 E316.800000
G1 X30.0000 Y20.0000 E318.000000
G1 X20.0000 Y20.0000 E319.200000
G0 Z4.5000
G1 X20.0000 Y30.0000 E320.400000
G1 X30.0000 Y30.0000 E321.600000
G1 X30.0000 Y20.0000 E322.800000
G1 X20.0000 Y20.0000 E324.000000
G0 Z4.6000
G1 X20.0000 Y30.0000 E325.200000
G1 X30.0000 Y30.0000 E326.400000
G1 X30.0000 Y20.0000 E327.600000
G1 X20.0000 Y20.0000 E328.800000
G0 Z4.7000
G1 X20.0000 Y30.0000 E330.000000
G1 X30.0000 Y30.0000 E331.200000
G1 X30.0000 Y20.0000 E332.400000
G1 X20.0000 Y20.0000 E333.600000
G0 Z4.8000
G1 X20.0000 Y30.0000 E334.800000
G1 X30.0000 Y30.0000 E336.000000
G1 X30.0000 Y20.0000 E337.200000
G1 X20.0000 Y20.0000 E338.400000
G0 Z4.9000
G1 X20.0000 Y30.0000 E339.600000
G1 X30.0000 Y30.0000 E340.800000
G1 X30.0000 Y20.0000 E342.000000
G1 X20.0000 Y20.0000 E343.200000
G0 Z5.0000
G1 X20.0000 Y30.0000 E344.400000
G1 X30.0000 Y30.0000 E345.600000
G1 X30.0000 Y20.0000 E346.800000
G1 X20.0000 Y20.0000 E348.000000
G0 Z5.1000
G1 X20.0000 Y30.0000 E349.200000
G1 X30.0000 Y30.0000 E350.400000
G1 X30.0000 Y20.0000 E351.600000
G1 X20.0000 Y20.0000 E352.800000
G0 Z5.2000
G1 X20.0000 Y30.0000 E354.000000
G1 X30.0000 Y30.0000 E355.200000
G1 X30.0000 Y20.0000 E356.400000
G1 X20.0000 Y20.0000 E357.600000
G0 Z5.3000
G1 X20.0000 Y30.0000 E358.800000
G1 X30.0000 Y30.0000 E360.000000
G1 X30.0000 Y20.0000 E361.200000
G1 X20.0000 Y20.0000 E362.400000
G0 Z5.4000
G1 X20.0000 Y30.0000 E363.600000
G1 X30.0000 Y30.0000 E364.800000
G1 X30.0000 Y20.0000 E366.000000
G1 X20.0000 Y20.0000 E367.200000
G0 Z5.5000
G1 X20.0000 Y30.0000 E368.400000
G1 X30.0000 Y30.0000 E369.600000
G1 X30.0000 Y20.0000 E370.800000
G1 X20.0000 Y20.0000 E372.000000
G0 Z5.6000
G1 X20.0000 Y30.0000 E373.200000
G1 X30.0000 Y30.0000 E374.400000
G1 X30.0000 Y20.0000 E375.600000
G1 X20.0000 Y20.0000 E376.800000
G0 Z5.7000
G1 X20.0000 Y30.0000 E378.000000
G1 X30.0000 Y30.0000 E379.200000
G1 X30.0000 Y20.0000 E380.400000
G1 X20.0000 Y20.0000 E381.600000
G0 Z5.8000
G1 X20.0000 Y30.0000 E382.800000
G1 X30.0000 Y30.0000 E384.000000
G1 X30.0000 Y20.0000 E385.200000
G1 X20.0000 Y20.0000 E386.400000
G0 Z5.9000
G1 X20.0000 Y30.0000 E387.600000
G1 X30.0000 Y30.0000 E388.800000
G1 X30.0000 Y20.0000 E390.000000
G1 X20.0000 Y20.0000 E391.200000
G0 Z6.0000
G1 X20.0000 Y30.0000 E392.400000
G1 X30.0000 Y30.0000 E393.600000
G1 X30.0000 Y20.0000 E394.800000
G1 X20.0000 Y20.0000 E396.000000
G0 Z6.1000
G1 X20.0000 Y30.0000 E397.200000
G1 X30.0000 Y30.0000 E398.400000
G1 X30.0000 Y20.0000 E399.600000
G1 X20.0000 Y20.0000 E400.800000
G0 Z6.2000
G1 X20.0000 Y30.0000 E402.000000
G1 X30.0000 Y30.0000 E403.200000
G1 X30.0000 Y20.0000 E404.400000
G1 X20.0000 Y20.0000 E405.600000
G0 Z6.3000
G1 X20.0000 Y30.0000 E406.800000
G1 X30.0000 Y30.0000 E408.000000
G1 X30.0000 Y20.0000 E409.200000
G1 X20.0000 Y20.0000 E410.400000
G0 Z6.4000
G1 X20.0000 Y30.0000 E411.600000
G1 X30.0000 Y30.0000 E412.800000
G1 X30.0000 Y20.0000 E414.000000
G1 X20.0000 Y20.0000 E415.200000
G0 Z6.5000
G1 X20.0000 Y30.0000 E416.400000
G1 X30.0000 Y30.0000 E417.600000
G1 X30.0000 Y20.0000 E418.800000
G1 X20.0000 Y20.0000 E420.000000
G0 Z6.6000
G1 X20.0000 Y30.0000 E421.200000
G1 X30.0000 Y30.0000 E422.400000
G1 X30.0000 Y20.0000 E423.600000
G1 X20.0000 Y20.0000 E424.800000
G0 Z6.7000
G1 X20.0000 Y30.0000 E426.000000
G1 X30.0000 Y30.0000 E427.200000
G1 X30.0000 Y20.0000 E428.400000
G1 X20.0000 Y20.0000 E429.600000
G0 Z6.8000
G1 X20.0000 Y30.0000 E430.800000
G1 X30.0000 Y30.0000 E432.000000
G1 X30.0000 Y20.0000 E433.200000
G1 X20.0000 Y20.0000 E434.400000
G0 Z6.9000
G1 X20.0000 Y30.0000 E435.600000
G1 X30.0000 Y30.0000 E436.800000
